!!!!SEGMENT: pl-sa--248-a-vii-8_szarzynski-stanislaw-sylwester--veni-sancte-spiritus.krn
!!!cenid: 16xx:715
!!!COM: Szarzyński, Stanisław Sylwester
!!!COM-rismID: pe30020507
!!!CDT: <1692-1713
!!!CNT: Polish
!!!OTL: Veni Sancte Spiritus
!!!PDT: 1697
!!!AGN: Sacred
!!!SMS-siglum: PL-SA
!!!SMS-shelfmark: 248/A VII 8
!!!SMS-shelfwork: W
!!!SMS-variant:
!!!SMS-altvar:
!!!NIFC-rismSourceID: 1001029958
!!!NIFC-rismChildID: 1001029958
!!!NIFC-islandoraID: none
!!!URL-pdf-islandora:
!!!URL-scan: https://bc.bdsandomierz.pl/dlibra/publication/1600/edition/1568/content @EN{Scan in the Sandomierz Diocese Digital Library} @PL{Skany w portalu Cyfrowa Biblioteka Diecezjalna w Sandomierzu}
!!!ONB-nifc:
!!!AIN: 2 empty 1 organ 1 vox
!!!key:
**kern	**fba	**dynam	**kern	**dynam	**kern	**dynam	**kern	**text
*part4	*	*part4	*part3	*	*part2	*part2	*part1	*part1
*	*	*	*group1	*	*group1	*	*	*
*staff4	*	*	*staff3	*	*staff2	*	*staff1	*staff1
*Iorgan	*	*	*Iempty	*	*Iempty	*	*Ivox	*
*I"Org	*	*	*I"Viol: 2do.	*	*I"Viol Imo	*	*I"Solo Canto	*
*I'Org	*	*	*I'Vno II	*	*I'Vno I	*	*I'C.	*
*clefF4	*	*	*clefG2	*	*clefG2	*	*clefC1	*
*k[f#]	*	*	*k[f#]	*	*k[f#]	*	*k[f#]	*
*e:	*	*	*e:	*	*e:	*	*e:	*
*M2/2	*	*	*M2/2	*	*M2/2	*	*M2/2	*
*met(c|)	*	*	*met(c|)	*	*met(c|)	*	*met(c|)	*
=1	=1	=1	=1	=1	=1	=1	=1	=1
!LO:TX:a:t=P:problem=brak nazwy instrumentu	!	!	!	!	!LO:TX:b:t=Veni Sancte Spiry.	!	!LO:TX:b:t=P:problem="V" przed kluczem	!
!LO:TX:a:t=P:all\right:problem	!	!	!	!	!	!	!	!
!LO:TX:a:t=Adagio.	!	!	!LO:TX:a:t=P:problem=krzyżyk fis powtórzony w oktawie razkreślnej	!	!	!	!	!
!LO:TX:a:t=P:problem=krzyżyk fis powtórzony w oktawie wielkiej	!	!	!LO:TX:a:t=Adagio.	!	!LO:TX:a:t=P:problem=krzyżyk fis powtórzony w oktawie razkreślnej	!	!LO:TX:a:t=Adagio.	!
!LO:TX:b:t=Veni Sancte Spirit(us). Solo cant.	!	!	!LO:TX:b:t=Veni Sancte.	!	!LO:TX:a:t=Adagio.	!	!LO:TX:a:t=P:all\right:problem	!
8E\L	.	.	00r	.	00r	.	8.b\	[V]e-
8D#X\J	6	.	.	.	.	.	.	.
.	.	.	.	.	.	.	16b\	-ni
4E\	.	.	.	.	.	.	(16g/LL	ve-
.	.	.	.	.	.	.	16f#/JJ)	.
.	.	.	.	.	.	.	8e/	-ni
*	*	*	*	*	*	*	*	*ij
8C/L	.	.	.	.	.	.	8.ee\	ve-
8AA/J	6	.	.	.	.	.	.	.
.	.	.	.	.	.	.	16ff#\	-ni
4BB/	#	.	.	.	.	.	(16dd#X\LL	ve-
.	.	.	.	.	.	.	16cc\JJ)	.
.	.	.	.	.	.	.	8b\	-ni
*	*	*	*	*	*	*	*	*Xij
=2	=2	=2	=2	=2	=2	=2	=2	=2
4GG#X/	6	.	.	.	.	.	8.ee\	ve-
.	.	.	.	.	.	.	16dd\	-ni
8AA/L	.	.	.	.	.	.	(16cc\LL	San-
.	.	.	.	.	.	.	16b\JJ)	.
8BB/J	6	.	.	.	.	.	(16a\LL	-cte
.	.	.	.	.	.	.	16b\JJ)	.
8C/L	6 5	.	.	.	.	.	8.a\	Spi-
8D/J	#	.	.	.	.	.	.	.
.	.	.	.	.	.	.	16g/	-ri-
4GG#/	.	.	.	.	.	.	4g/	-t(us)
=3	=3	=3	=3	=3	=3	=3	=3	=3
2D#X/	6	.	.	.	.	.	8.b\	et
.	.	.	.	.	.	.	16a\	e-
.	.	.	.	.	.	.	8a\	-mit-
.	.	.	.	.	.	.	(16b\LL	-te
.	.	.	.	.	.	.	16f#\JJ)	.
8E/L	.	.	.	.	.	.	8.g/	coe-
8D#/	.	.	.	.	.	.	.	.
.	.	.	.	.	.	.	16f#/	-li-
8C/	.	.	.	.	.	.	4e/	-t(us)
8BB/J	.	.	.	.	.	.	.	.
*	*	*	*	*	*	*	*custos:ee	*
!	!	!	!	!	!	!	!LO:LB:g=original	!
=4	=4	=4	=4	=4	=4	=4	=4	=4
4AA/	#	.	.	.	.	.	8.ee\	et
.	.	.	.	.	.	.	16ee\	e-
4AA#X/	.	.	.	.	.	.	(16ff#\LL	-mit-
!	!	!	!	!	!	!	!LO:TX:a:t=P:problem=# above	!
.	.	.	.	.	.	.	16cc#X\JJ)	.
.	.	.	.	.	.	.	(16dd#X\LL	-te
.	.	.	.	.	.	.	16ee\JJ)	.
2BB/	#	.	.	.	.	.	8.dd#X\	coe-
.	.	.	.	.	.	.	16cc#\	-li-
.	.	.	.	.	.	.	4b\	-tus
=5	=5	=5	=5-	=5	=5-	=5	=5	=5
8AA/L	.	.	0r	.	0r	.	8.cc\	Lu-
8BB/	.	.	.	.	.	.	.	.
.	.	.	.	.	.	.	16b\	-cis
8C/	.	.	.	.	.	.	(16a\LL	tu-
.	.	.	.	.	.	.	16b\JJ)	.
8AA/J	.	.	.	.	.	.	(16a\LL	-ae
.	.	.	.	.	.	.	16g\JJ)	.
4BB/	.	.	.	.	.	.	8.f#/	ra-
.	.	.	.	.	.	.	16e/	-di-
4E\	.	.	.	.	.	.	4e/	-um
=6	=6	=6	=6	=6	=6	=6	=6	=6
8AA/L	.	.	.	.	.	.	8.cc\	Lu-
8BB/	.	.	.	.	.	.	.	.
.	.	.	.	.	.	.	16b\	-cis
8C/	.	.	.	.	.	.	(16a\LL	tu-
.	.	.	.	.	.	.	16b\JJ)	.
8AA/J	.	.	.	.	.	.	(16a\LL	-ae
.	.	.	.	.	.	.	16g\JJ)	.
*custos:BB	*	*	*	*	*	*	*	*
!LO:LB:g=original	!	!	!	!	!	!	!	!
4BB/	.	.	.	.	.	.	8.f#/	ra-
.	.	.	.	.	.	.	16e/	-di-
4E\	.	.	.	.	.	.	4e/	-um
=7	=7	=7	=7-	=7	=7-	=7	=7-	=7
!LO:TX:b:t=viol&colon;	!	!	!	!	!	!	!	!
8E\L	-	.	8.g/L	.	8.b/L	.	00r	.
8D#X\J	6	.	.	.	.	.	.	.
.	.	.	16f#/Jk	.	16b/Jk	.	.	.
4E\	.	.	8b/L	.	8g/L	.	.	.
.	.	.	8a/J	.	8e/J	.	.	.
!	!	!	!	!	!LO:TX:a:t=P:all\right:problem	!	!	!
8C/L	.	.	8g/L	.	8ee\L	.	.	.
8AA/J	.	.	16a/L	.	(16ff#\L	.	.	.
!	!	!	!	!	!LO:TX:a:t=P:problem=# above	!	!	!
.	.	.	16g/JJ	.	16cc#X\JJ)	.	.	.
!	!	!	!	!	!LO:TX:a:t=P:problem=# above	!	!	!
4BB/	#6r	.	4f#/	.	4dd#X\	.	.	.
=8	=8	=8	=8	=8	=8	=8	=8	=8
!	!	!	!LO:TX:a:t=P:all\right:problem	!	!	!	!	!
4C/	.	.	8.cc\L	.	8.ee\L	.	.	.
.	.	.	16cc\Jk	.	16ff#\Jk	.	.	.
4GG/	.	.	8.b/L	.	16gg\LL	.	.	.
.	.	.	.	.	16b\	.	.	.
.	.	.	.	.	16a\	.	.	.
.	.	.	16b/Jk	.	16g\JJ	.	.	.
!LO:TX:b:t=P:problem=# below	!	!	!	!	!	!	!	!
4D#/	.	.	8a/L	.	8.g/L	.	.	.
.	.	.	16g/L	.	.	.	.	.
.	.	.	16a/JJ	.	16f#/Jk	.	.	.
4GG/	.	.	4b/	.	4g/	.	.	.
=9	=9	=9	=9	=9	=9	=9	=9	=9
8G\L	.	.	8b/L	.	8.dd\L	.	.	.
8F#\J	6	.	8a/J	.	.	.	.	.
.	.	.	.	.	16dd\Jk	.	.	.
4G\	.	.	4b/	.	8b/L	.	.	.
.	.	.	.	.	8g/J	.	.	.
8E\L	.	.	8ee\L	.	8gg\L	.	.	.
8F#\J	.	.	16dd\L	.	16ff#\L	.	.	.
.	.	.	16cc\JJ	.	16ee\JJ	.	.	.
4G\	.	.	4b/	.	4dd\	.	.	.
=10	=10	=10	=10	=10	=10	=10	=10	=10
8E\L	.	.	16ee\LL	.	16gg\LL	.	.	.
.	.	.	16dd\	.	16ff#\	.	.	.
8G\	.	.	16cc\	.	16ee\	.	.	.
.	.	.	16b\JJ	.	16dd\JJ	.	.	.
!	!	!	!LO:TX:a:t=P:problem=# above	!	!	!	!	!
8A\	#	.	8cc#X\L	.	8ee\L	.	.	.
8D\J	.	.	8dd\J	.	16ff#\L	.	.	.
.	.	.	.	.	16gg\JJ	.	.	.
4A\	#	.	8.dd\L	.	8.ff#\L	.	.	.
.	.	.	16cc#\Jk	.	16ee\Jk	.	.	.
4D/	.	.	4dd\	.	4dd\	.	.	.
*	*	*	*	*	*custos:aa	*	*	*
!	!	!	!	!	!LO:LB:g=original	!	!	!
=11	=11	=11	=11	=11	=11	=11	=11-	=11
8E\L	.	.	8ff#\L	.	8aa\L	.	0r	.
16D\L	.	.	8ff#\J	.	8aa\J	.	.	.
16C\JJ	.	.	.	.	.	.	.	.
4BB/	6	.	16gg\LL	.	16bb\LL	.	.	.
.	.	.	16aa\	.	16ccc\	.	.	.
.	.	.	16gg\	.	16bb\	.	.	.
*	*	*	*custos:ff	*	*	*	*	*
!	!	!	!LO:LB:g=original	!	!	!	!	!
.	.	.	16ff#\JJ	.	16aa\JJ	.	.	.
8C/L	.	.	8ee\L	.	8gg\L	.	.	.
8BB/J	.	.	8ee\J	.	8gg\J	.	.	.
4AA/	.	.	16ff#\LL	.	16aa\LL	.	.	.
.	.	.	16gg\	.	16bb\	.	.	.
.	.	.	16ff#\	.	16aa\	.	.	.
.	.	.	16ee\JJ	.	16gg\JJ	.	.	.
=12	=12	=12	=12	=12	=12	=12	=12	=12
!	!	!	!LO:TX:a:t=P:problem=# above	!	!	!	!	!
4BB/	#	.	8.dd#X\L	.	8ff#\L	.	.	.
.	.	.	.	.	8bb\J	.	.	.
.	.	.	16dd#\Jk	.	.	.	.	.
4E\	.	.	8gg\L	.	8dd\L	.	.	.
.	.	.	8ee\J	.	16gg\L	.	.	.
.	.	.	.	.	16ff#\JJ	.	.	.
4BB/	#	.	8.ff#\L	.	8.ee\L	.	.	.
!	!	!	!	!	!LO:TX:a:t=P:problem=# above	!	!	!
.	.	.	16ff#\Jk	.	16dd#X\Jk	.	.	.
4E\	.	.	4ee\	.	4ee\	.	.	.
*custos:BB	*	*	*	*	*	*	*	*
!LO:LB:g=original	!	!	!	!	!	!	!	!
=13	=13	=13	=13	=13	=13	=13	=13	=13
!	!	!LO:DY:b:t=piano	!LO:TX:a:t=P:problem=# above	!LO:DY:b:t=piano.	!	!LO:DY:b:t=piano	!	!
4BB/	#	p	8.dd#X\L	p	8ff#\L	p	1r	.
.	.	.	.	.	8bb\J	.	.	.
.	.	.	16dd#\Jk	.	.	.	.	.
4E\	.	.	8.gg\L	.	8dd\L	.	.	.
.	.	.	.	.	16gg\L	.	.	.
.	.	.	16ee\Jk	.	16ff#\JJ	.	.	.
4BB/	#	.	8.ff#\L	.	8.ee\L	.	.	.
!	!	!	!	!	!LO:TX:a:t=P:problem=# above	!	!	!
.	.	.	16ff#\Jk	.	16dd#X\Jk	.	.	.
4E\	.	.	4ee\	.	4ee\	.	.	.
=14	=14	=14	=14	=14	=14	=14	=14	=14
*M3/8	*	*	*M3/8	*	*M3/8	*	*M3/8	*
!LO:TX:b:t=Praeſto	!	!	!LO:N:vis=0	!	!LO:N:vis=0	!	!LO:TX:b:t=Allegro	!
4E\	.	.	2.r	.	2.r	.	8r	.
.	.	.	.	.	.	.	8ee\	ve-
8r	.	.	.	.	.	.	8b\	-ni
*	*	*	*	*	*	*	*custos:ee	*
!	!	!	!	!	!	!	!LO:LB:g=original	!
=15	=15	=15	=15	=15	=15	=15	=15	=15
4E\	.	.	.	.	.	.	16ee\LL	ve-
!	!	!	!	!	!	!	!LO:TX:a:t=P:problem=# above	!
.	.	.	.	.	.	.	16dd#X\	.
.	.	.	.	.	.	.	16ee\	.
.	.	.	.	.	.	.	16ff#\	.
8r	.	.	.	.	.	.	16ee\	.
.	.	.	.	.	.	.	16ff#\JJ	.
=16	=16	=16	=16-	=16	=16	=16	=16	=16
!	!	!	!	!	!LO:TX:b:t=Praeſto	!	!	!
!	!	!	!LO:TX:b:t=Praeſto	!	!	!	!	!
4BB/	#	.	8r	.	8r	.	8dd#X\	.
!	!	!	!LO:TX:a:t=P:problem=# above	!	!	!	!	!
.	.	.	8dd#X\L	.	8ff#\L	.	8b\	-ni
8r	.	.	8dd#\J	.	8ff#\J	.	8r	.
=17	=17	=17	=17	=17	=17	=17	=17-	=17
4E\	.	.	8ee\L	.	8gg\L	.	4.r	.
.	.	.	8b\	.	8b\	.	.	.
8r	.	.	8gg\J	.	8ee\J	.	.	.
=18	=18	=18	=18	=18	=18	=18	=18-	=18
!LO:TX:b:t=c	!	!	!	!	!LO:TX:a:t=P:problem=# above	!	!	!
4BB/	#	.	8ff#\	.	8dd#X\	.	8r	.
!	!	!	!	!	!	!	!LO:TX:a:t=P:problem=# above	!
.	.	.	8r	.	8r	.	8dd#X\	ve-
8r	.	.	8r	.	8r	.	8dd#\	-ni
=19	=19	=19	=19-	=19	=19-	=19	=19	=19
4E\	.	.	4.r	.	4.r	.	16ee\LL	ve-
!	!	!	!	!	!	!	!LO:TX:a:t=P:problem=# above	!
.	.	.	.	.	.	.	16dd#X\	.
.	.	.	.	.	.	.	16ee\	.
.	.	.	.	.	.	.	16ff#\JJ	.
8r	.	.	.	.	.	.	8ee\	.
*	*	*	*	*	*custos:ff	*	*	*
!	!	!	!	!	!LO:LB:g=original	!	!	!
=20-	=20	=20	=20-	=20	=20-	=20	=20	=20
4BB/	#	.	8r	.	8r	.	8ff#\	.
!	!	!	!LO:TX:a:t=P:problem=# above	!	!	!	!	!
.	.	.	8dd#X\L	.	8ff#\L	.	8b\	-ni
8r	.	.	8dd#\J	.	8ff#\J	.	8r	.
=21-	=21	=21	=21	=21	=21	=21	=21-	=21
!	!	!	!	!	!	!	!LO:N:vis=0	!
4E\	.	.	16ee\LL	.	16gg\LL	.	2.r	.
!	!	!	!LO:TX:a:t=P:problem=# above	!	!	!	!	!
.	.	.	16dd#X\	.	16ff#\	.	.	.
.	.	.	16ee\	.	16gg\	.	.	.
.	.	.	16ff#\JJ	.	16aa\JJ	.	.	.
8r	.	.	8ee\	.	8gg\	.	.	.
*	*	*	*custos:dd	*	*	*	*	*
!	!	!	!LO:LB:g=original	!	!	!	!	!
=22-	=22	=22	=22	=22	=22	=22	=22	=22
!	!	!	!LO:TX:a:t=P:problem=# above	!	!	!	!	!
4BB/	#	.	8dd#X\L	.	8ff#\L	.	.	.
.	.	.	8ff#\	.	8bb\	.	.	.
!	!	!	!	!	!LO:TX:a:t=P:problem=# above	!	!	!
8r	.	.	8ff#\J	.	8dd#X\J	.	.	.
=23-	=23	=23	=23	=23	=23	=23	=23-	=23
!LO:TX:b:t=c	!	!	!	!	!	!	!	!
4E\	.	.	4gg\	.	8ee\	.	8r	.
.	.	.	.	.	8r	.	8b\	ve-
8r	.	.	8r	.	8r	.	8ee\	-ni
=24-	=24	=24	=24	=24	=24	=24	=24	=24
4BB/	.	.	8r	.	8r	.	8dd#X\	Pa-
!	!	!	!LO:TX:a:t=P:problem=# above	!	!	!	!	!
.	.	.	8dd#X\L	.	8ff#\L	.	8b\	-ter
8r	.	.	8dd#\J	.	8ff#\J	.	8r	.
=25-	=25	=25	=25	=25	=25	=25	=25	=25
4E\	.	.	4ee\	.	8gg\	.	8r	.
.	.	.	.	.	8r	.	8ee\	ve-
8r	.	.	8r	.	8r	.	8ee\	-ni
=26-	=26	=26	=26	=26	=26	=26	=26	=26
4BB/	.	.	8r	.	8r	.	16ee\LL	ve-
!	!	!	!	!	!	!	!LO:TX:a:t=P:problem=# above	!
.	.	.	.	.	.	.	16dd#X\JJ	.
!	!	!	!LO:TX:a:t=P:problem=# above	!	!	!	!	!
.	.	.	8dd#X\L	.	8ff#\L	.	8dd#\	-ni
8r	.	.	8dd#\J	.	8bb\J	.	8r	.
*	*	*	*	*	*	*	*custos:ee	*
!	!	!	!	!	!	!	!LO:LB:g=original	!
=27-	=27	=27	=27	=27	=27	=27	=27	=27
4E\	.	.	4ee\	.	8gg\	.	8r	.
.	.	.	.	.	8r	.	8ee\	ve-
8r	.	.	8r	.	8r	.	8ee\	-ni
=28-	=28	=28	=28	=28	=28	=28	=28	=28
*	*	*	*	*	*	*	*	*ij
4BB/	.	.	8r	.	8r	.	16ee\LL	ve-
!	!	!	!	!	!	!	!LO:TX:a:t=P:problem=# above	!
.	.	.	.	.	.	.	16dd#X\JJ	.
!	!	!	!LO:TX:a:t=P:problem=# above	!	!	!	!	!
.	.	.	8dd#X\L	.	8ff#\L	.	8dd#\	-ni
*	*	*	*	*	*	*	*	*Xij
8r	.	.	8dd#\J	.	8ff#\J	.	8r	.
*custos:E	*	*	*	*	*	*	*	*
!LO:LB:g=original	!	!	!	!	!	!	!	!
=29	=29	=29	=29	=29	=29	=29	=29-	=29
!	!	!	!	!	!	!	!LO:N:vis=0	!
4E\	.	.	16ee\LL	.	16gg\LL	.	2.r	.
!	!	!	!LO:TX:a:t=P:problem=# above	!	!	!	!	!
.	.	.	16dd#X\	.	16ff#\	.	.	.
.	.	.	16ee\	.	16gg\	.	.	.
.	.	.	16ff#\JJ	.	16aa\JJ	.	.	.
8r	.	.	8gg\	.	8bb\	.	.	.
=30-	=30	=30	=30	=30	=30	=30	=30	=30
8AA/	.	.	16ff#\LL	.	16aa\LL	.	.	.
.	.	.	16ee\JJ	.	16gg\JJ	.	.	.
4BB/	.	.	8.ee\L	.	8.ff#\L	.	.	.
!	!	!	!LO:TX:a:t=P:problem=# above	!	!	!	!	!
.	.	.	16dd#X\Jk	.	16ee\Jk	.	.	.
*	*	*	*	*	*custos:ee	*	*	*
!	!	!	!	!	!LO:LB:g=original	!	!	!
=31	=31	=31	=31	=31	=31	=31	=31-	=31
!LO:TX:b:t=c	!	!	!	!	!	!	!	!
4E\	.	.	4ee\	.	8ee\	.	8r	.
.	.	.	.	.	8r	.	8gg\	ve-
8r	.	.	8r	.	8r	.	8ee\	-ni
=32-	=32	=32	=32	=32	=32	=32	=32	=32
4BB/	.	.	8r	.	8r	.	8dd#X\	Pa-
!	!	!	!LO:TX:a:t=P:problem=# above	!	!	!	!	!
.	.	.	8dd#X\L	.	8bb\L	.	8b\	-ter
8r	.	.	8dd#\J	.	8ff#\J	.	8r	.
=33-	=33	=33	=33	=33	=33	=33	=33	=33
4E\	.	.	4ee\	.	8gg\	.	8r	.
.	.	.	.	.	8r	.	8gg\	Pa-
8r	.	.	8r	.	8r	.	8ee\	-ter
*	*	*	*custos:dd	*	*	*	*	*
!	!	!	!LO:LB:g=original	!	!	!	!	!
=34-	=34	=34	=34	=34	=34	=34	=34	=34
!	!	!	!	!	!	!	!LO:TX:a:t=P:problem=# above	!
4BB/	.	.	8r	.	8r	.	8dd#X\	ve-
!	!	!	!LO:TX:a:t=P:problem=# above	!	!	!	!	!
.	.	.	8dd#X\L	.	8bb\L	.	8b\	-ni
8r	.	.	8dd#\J	.	8ff#\J	.	8r	.
=35-	=35	=35	=35	=35	=35	=35	=35	=35
4E\	.	.	4ee\	.	8gg\	.	8r	.
.	.	.	.	.	8r	.	8ee\	Ve-
8r	.	.	8r	.	8r	.	8ff#\	-ni
=36-	=36	=36	=36	=36	=36	=36	=36	=36
!	!	!	!	!	!	!	!LO:TX:a:t=P:problem=# above	!
4BB/	.	.	8r	.	8r	.	8dd#X\	Pa-
!	!	!	!LO:TX:a:t=P:problem=# above	!	!	!	!	!
.	.	.	8dd#X\L	.	8ff#\L	.	8b\	-ter
8r	.	.	8dd#\J	.	8ff#\J	.	8r	.
=37	=37	=37	=37	=37	=37	=37	=37	=37
!LO:TX:b:t=adagio	!	!	!	!	!	!	!LO:TX:b:t=adagio	!
4.GG#X/	6	.	4ee\	.	8gg\	.	8r	.
.	5	.	.	.	8r	.	8ee\	ve-
.	.	.	8r	.	8r	.	8dd\	-ni
=38-	=38	=38	=38-	=38	=38-	=38	=38	=38
!	!	!	!LO:TX:b:t=adag	!	!LO:TX:b:t=adagio	!	!	!
!	!	!	!LO:N:vis=00	!	!LO:N:vis=00	!	!	!
8AA/	.	.	1.r	.	1.r	.	4cc\	ve-
4BB/	#	.	.	.	.	.	.	.
.	.	.	.	.	.	.	8b\	-ni
!	!	!	!	!	!	!	!LO:LB:g=original	!
=39-	=39	=39	=39	=39	=39	=39	=39	=39
4.C/	7	.	.	.	.	.	4b\	Pa-
.	6	.	.	.	.	.	8a\	-ter
=40-	=40	=40	=40	=40	=40	=40	=40	=40
4.BB/	.	.	.	.	.	.	8.b\	pau-
!LO:TX:a:t=H	!	!	!	!	!	!	!	!
.	.	.	.	.	.	.	16b\	-pe-
.	.	.	.	.	.	.	8b\	-rum
=41	=41	=41	=41	=41	=41	=41	=41	=41
4.GG#X/	6	.	.	.	.	.	8r	.
.	5	.	.	.	.	.	8ee\	ve-
.	.	.	.	.	.	.	8dd\	-ni
=42-	=42	=42	=42-	=42	=42-	=42	=42	=42
!	!	!	!	!	!	!	!	!
*	*	*	*	*	*	*	*	*ij
!	!	!	!LO:N:vis=00	!	!LO:N:vis=00	!	!	!
8AA/	.	.	1.r	.	1.r	.	4cc\	ve-
4BB/	#	.	.	.	.	.	.	.
.	.	.	.	.	.	.	8b\	-ni
*	*	*	*	*	*	*	*	*Xij
=43-	=43	=43	=43	=43	=43	=43	=43	=43
4.C/	7	.	.	.	.	.	4b\	da-
.	6	.	.	.	.	.	8a\	-tor
=44-	=44	=44	=44	=44	=44	=44	=44	=44
4.BB/	.	.	.	.	.	.	8.b\	mu-
!LO:TX:a:t=F	!	!	!	!	!	!	!	!
.	.	.	.	.	.	.	16b\	-ne-
.	.	.	.	.	.	.	8b\	-rum
=45	=45	=45	=45	=45	=45	=45	=45	=45
!LO:TX:b:t=Praeſto	!	!	!	!	!	!	!LO:TX:b:t=Preſto	!
4E\	-	.	.	.	.	.	8r	.
.	.	.	.	.	.	.	8ee\	ve-
8r	.	.	.	.	.	.	8gg\	-ni
=46-	=46	=46	=46-	=46	=46-	=46	=46	=46
!	!	!	!	!	!	!	!LO:TX:a:t=P:problem=# above	!
*	*	*	*	*	*	*	*	*ij
4BB/	#	.	8r	.	8r	.	8dd#X\	ve-
!	!	!	!LO:TX:b:t=Allegro.	!	!LO:TX:b:t=Allegro	!	!	!
.	.	.	8dd#X\L	.	8ff#\L	.	8b\	-ni
*	*	*	*	*	*	*	*	*Xij
8r	.	.	8dd#\J	.	8ff#\J	.	8r	.
*custos:E	*	*	*	*	*	*	*	*
!LO:LB:g=original	!	!	!	!	!	!	!	!
=47-	=47	=47	=47	=47	=47	=47	=47-	=47
4E\	.	.	8ee\	.	8gg\L	.	4.r	.
.	.	.	16gg\LL	.	8cc\	.	.	.
.	.	.	16ff#\	.	.	.	.	.
8r	.	.	16gg\	.	8ee\J	.	.	.
.	.	.	16aa\JJ	.	.	.	.	.
=48-	=48	=48	=48	=48	=48	=48	=48-	=48
!LO:TX:b:t=c	!	!	!	!	!LO:TX:a:t=P:problem=# above	!	!	!
4BB/	#	.	4ff#\	.	8dd#X\	.	8r	.
.	.	.	.	.	8r	.	8ff#\	ve-
8r	.	.	8r	.	8r	.	8ee\	-ni
=49-	=49	=49	=49-	=49	=49-	=49	=49	=49
!	!	!	!	!	!	!	!LO:TX:a:t=P:problem=# above	!
4BB/	#	.	4.r	.	4.r	.	(8dd#X\L	da-
.	.	.	.	.	.	.	8ee\J)	.
8r	.	.	.	.	.	.	8ff#\	-tor
=50-	=50	=50	=50-	=50	=50-	=50	=50	=50
!	!	!	!	!	!	!	!LO:TX:a:t=P:problem=# above	!
4BB/	#	.	8r	.	8r	.	8.dd#X\	mu-
!	!	!	!LO:SIC:s=dd#:v	!	!	!	!	!
.	.	.	8dd\L	.	8ff#\L	.	.	.
.	.	.	.	.	.	.	16cc\	-ne-
!	!	!	!LO:SIC:s=dd#:v	!	!	!	!	!
8r	.	.	8dd\J	.	8ff#\J	.	8b\	-r(um)
*	*	*	*	*	*custos:gg	*	*custos:gg	*
!	!	!	!	!	!LO:LB:g=original	!	!LO:LB:g=original	!
=51	=51	=51	=51	=51	=51	=51	=51	=51
4E\	.	.	8ee\	.	8gg\	.	8r	.
.	.	.	8r	.	8r	.	8gg\	ve-
8r	.	.	8r	.	8r	.	8ee\	-ni
=52-	=52	=52	=52	=52	=52	=52	=52	=52
!	!	!	!	!	!	!	!LO:TX:a:t=P:problem=# above	!
4BB/	.	.	8r	.	8r	.	8dd#X\	da-
!	!	!	!LO:SIC:s=dd#:v	!	!	!	!	!
.	.	.	8dd\L	.	8ff#\L	.	8b\	-tor
!	!	!	!LO:SIC:s=dd#:v	!	!	!	!	!
8r	.	.	8dd\J	.	8bb\J	.	8r	.
=53-	=53	=53	=53	=53	=53	=53	=53	=53
4E\	.	.	4ee\	.	8gg\	.	8r	.
.	.	.	.	.	8r	.	8gg\	ve-
8r	.	.	8r	.	8r	.	8ee\	-ni
=54-	=54	=54	=54	=54	=54	=54	=54	=54
!	!	!	!	!	!	!	!LO:TX:a:t=P:problem=# above	!
4BB/	.	.	8r	.	8r	.	8dd#X\	Pa-
!	!	!	!LO:SIC:s=dd#:v	!	!	!	!	!
.	.	.	8dd\L	.	8ff#\L	.	8b\	-ter
!	!	!	!LO:SIC:s=dd#:v	!	!	!	!	!
8r	.	.	8dd\J	.	8bb\J	.	8r	.
=55-	=55	=55	=55	=55	=55	=55	=55-	=55
!	!	!	!LO:TX:a:t=P:problem=mixed beam	!	!	!	!	!
4E\	.	.	8ee\L	.	8gg\L	.	4.r	.
.	.	.	8a/	.	16ff#\L	.	.	.
.	.	.	.	.	16gg\	.	.	.
8r	.	.	8g/J	.	16ff#\	.	.	.
.	.	.	.	.	16ee\JJ	.	.	.
=56-	=56	=56	=56	=56	=56	=56	=56-	=56
!LO:TX:b:t=adagio	!	!	!	!	!LO:TX:a:t=P:problem=# above	!	!LO:TX:b:t=adagio	!
4BB/	.	.	4f#/	.	8dd#X\L	.	8r	.
.	.	.	.	.	8b\J	.	8b\	ve-
8r	.	.	8r	.	8r	.	8ee\	-ni
*	*	*	*custos:g	*	*	*	*	*
!	!	!	!LO:LB:g=original	!	!	!	!	!
=57-	=57	=57	=57-	=57	=57-	=57	=57	=57
!	!	!	!LO:TX:b:t=adag	!	!LO:TX:b:t=adagio	!	!LO:TX:a:t=P:problem=# above	!
!	!	!	!LO:N:vis=00	!	!LO:N:vis=00	!	!	!
4BB/	#	.	1.r	.	1.r	.	(8dd#X\L	da-
.	.	.	.	.	.	.	8ee\J)	.
8r	.	.	.	.	.	.	8ff#\	-tor
=58-	=58	=58	=58	=58	=58	=58	=58	=58
!	!	!	!	!	!	!	!LO:TX:a:t=P:problem=# above	!
4BB/	#	.	.	.	.	.	8.dd#X\	mu-
.	.	.	.	.	.	.	16cc\	-ne-
8r	.	.	.	.	.	.	8b\	-rum
=59	=59	=59	=59	=59	=59	=59	=59	=59
4.GG/	.	.	.	.	.	.	8r	.
.	.	.	.	.	.	.	8dd\	ve-
.	.	.	.	.	.	.	8b\	-ni
=60-	=60	=60	=60	=60	=60	=60	=60	=60
8AA/L	.	.	.	.	.	.	8cc\L	lu-
8BB/	.	.	.	.	.	.	16dd\L	.
.	.	.	.	.	.	.	16cc\JJ	.
8C/J	.	.	.	.	.	.	8b\	-men
=61	=61	=61	=61-	=61	=61	=61	=61	=61
!	!	!	!LO:N:vis=0	!	!LO:N:vis=0	!	!	!
4D/	#	.	2.r	.	2.r	.	8.a\	cor-
.	.	.	.	.	.	.	16g/	-di-
8GG/	.	.	.	.	.	.	8g/	-um
*	*	*	*	*	*	*	*custos:b	*
!	!	!	!	!	!	!	!LO:LB:g=original	!
=62	=62	=62	=62	=62	=62	=62	=62	=62
!LO:TX:b:t=allegro	!	!	!	!	!	!	!LO:TX:b:t=allegro	!
4E\	.	.	.	.	.	.	8r	.
.	.	.	.	.	.	.	8b\	ve-
8r	.	.	.	.	.	.	8a\	-ni
=63-	=63	=63	=63-	=63	=63-	=63	=63	=63
!	!	!	!LO:TX:b:t=Allegro	!	!LO:TX:b:t=Allegro	!	!	!
*	*	*	*	*	*	*	*	*ij
4E\	.	.	8r	.	8r	.	8g/	ve-
.	.	.	8g/L	.	8b/L	.	8e/	-ni
*	*	*	*	*	*	*	*	*Xij
8r	.	.	8g/J	.	8b/J	.	8r	.
=64-	=64	=64	=64	=64	=64	=64	=64	=64
4E\	.	.	8b/L	.	8g/L	.	8r	.
.	.	.	8g/J	.	8e/J	.	8ee\	ve-
8r	.	.	8r	.	8r	.	8ff#\	-ni
=65-	=65	=65	=65	=65	=65	=65	=65	=65
*	*	*	*	*	*	*	*	*ij
4BB/	#	.	8r	.	8r	.	8dd#X\	ve-
.	.	.	8dd#X\L	.	8ff#\L	.	8b\	-ni
*	*	*	*	*	*	*	*	*Xij
8r	.	.	8dd#\J	.	8bb\J	.	8r	.
=66-	=66	=66	=66	=66	=66	=66	=66	=66
4E\	.	.	4ee\	.	4gg\	.	8r	.
.	.	.	.	.	.	.	8ee\	ve-
8r	.	.	8r	.	8r	.	8ff#\	-ni
*custos:BB	*	*	*	*	*	*	*	*
!LO:LB:g=original	!	!	!	!	!	!	!	!
=67-	=67	=67	=67	=67	=67	=67	=67	=67
*	*	*	*	*	*	*	*	*ij
4BB/	.	.	4dd#X\	.	8bb\L	.	8dd#X\L	ve-
.	.	.	.	.	8bb\	.	8ee\J	.
8r	.	.	8r	.	8gg\J	.	8ff#\	-ni
*	*	*	*	*	*	*	*	*Xij
*	*	*	*	*	*custos:ff	*	*	*
!	!	!	!	!	!LO:LB:g=original	!	!	!
=68-	=68	=68	=68	=68	=68	=68	=68	=68
4BB/	#	.	8ee\L	.	4ff#\	.	4gg\	lu-
.	.	.	8cc\	.	.	.	.	.
8AA/	7	.	8ee\J	.	8gg\	.	8ee\	-men
=69	=69	=69	=69	=69	=69	=69	=69	=69
4BB/	#	.	8.b\L	.	8.ff#\L	.	8.ee\	cor-
.	.	.	16b\K	.	16ee\K	.	16dd#X\	-di-
8E\	.	.	8cc\J	.	8ee\J	.	8ee\	-um
=70	=70	=70	=70	=70	=70	=70	=70	=70
!LO:TX:a:t=P:problem=brak t.70	!	!	!	!	!LO:TX:a:t=P:problem=brak t.70	!	!LO:TX:a:t=P:problem=brak t.70	!
4.ryy	.	.	4b/	.	4.ryy	.	4.ryy	.
.	.	.	8b/	.	.	.	.	.
=71	=71	=71	=71	=71	=71	=71	=71	=71
*M2/2	*	*	*M2/2	*	*M2/2	*	*M2/2	*
*met(c|)	*	*	*met(c|)	*	*met(c|)	*	*met(c|)	*
!	!	!	!LO:TX:b:t=Conſolator.	!	!LO:TX:b:t=Conſolator	!	!	!
!LO:TX:b:t=Adagio. Conſolator.	!	!	!LO:TX:a:t=Adagio	!	!LO:TX:a:t=Adagio	!	!LO:TX:a:t=Adagio	!
2GG/	.	.	1r	.	1r	.	8.b\	con-
.	.	.	.	.	.	.	16cc\	-ſo-
.	.	.	.	.	.	.	8dd\	-la-
.	.	.	.	.	.	.	8dd\	-tor
*	*	*	*	*	*	*	*custos:ee	*
!	!	!	!	!	!	!	!LO:LB:g=original	!
4C/	6	.	.	.	.	.	8.ee\	con-
.	.	.	.	.	.	.	16g/	-ſo-
8D/L	.	.	.	.	.	.	8a\	-la-
8GG/J	.	.	.	.	.	.	8b\	-tor
=72	=72	=72	=72-	=72	=72-	=72	=72	=72
4D/	#	.	2r	.	2r	.	8.a\	o-
.	.	.	.	.	.	.	16g/	-pti-
4GG/	.	.	.	.	.	.	4g/	-me
2GG/	.	.	8.g/L	.	8.b\L	.	2r	.
.	.	.	16a/Jk	.	16cc\Jk	.	.	.
.	.	.	8b/L	.	8dd\L	.	.	.
.	.	.	8b/J	.	8dd\J	.	.	.
=73	=73	=73	=73	=73	=73	=73	=73-	=73
!	!	!	!	!	!LO:TX:a:t=P:problem=mixed beam	!	!	!
4C/	.	.	8.cc\L	.	8ee\L	.	1r	.
.	.	.	.	.	8g/J	.	.	.
.	.	.	16b\Jk	.	.	.	.	.
8D/L	.	.	8a/L	.	(16a/LL	.	.	.
.	.	.	.	.	16b/)	.	.	.
8GG/J	.	.	8g/J	.	(16cc/	.	.	.
.	.	.	.	.	16b/JJ)	.	.	.
4D/	.	.	8.g/L	.	8.a/L	.	.	.
!	!	!	!LO:TX:b:t=P:problem=# below	!	!	!	!	!
.	.	.	16f#X/Jk	.	16g/Jk	.	.	.
4GG/	.	.	4g/	.	4g/	.	.	.
=74	=74	=74	=74-	=74	=74-	=74	=74-	=74
!LO:TX:b:t=c	!	!	!	!	!	!	!	!
4G\	.	.	1r	.	1r	.	8.b\	con-
.	.	.	.	.	.	.	16cc\	-ſo-
8F#X\L	6	.	.	.	.	.	8dd\	-la-
8G\J	.	.	.	.	.	.	8dd\	-tor
*	*	*	*	*	*	*	*	*ij
8A\L	#	.	.	.	.	.	8ee\	con-
8D\J	.	.	.	.	.	.	8ff#\	-so-
8E\L	6	.	.	.	.	.	8cc#X\	-la-
8F#\J	6	.	.	.	.	.	8dd\	-tor
*	*	*	*	*	*	*	*	*Xij
=75	=75	=75	=75-	=75	=75-	=75	=75	=75
8G\L	6 5	.	2r	.	2r	.	8.dd\	op-
8A\J	#	.	.	.	.	.	.	.
.	.	.	.	.	.	.	16cc\	-ti-
4D/	.	.	.	.	.	.	4dd\	-me
*	*	*	*custos:g	*	*	*	*	*
!	!	!	!LO:LB:g=original	!	!	!	!	!
*2\right	*	*	*	*	*	*	*	*
2G\	.	.	8g/L	.	8.b\L	.	2r	.
.	.	.	8a/J	.	.	.	.	.
.	.	.	.	.	16cc\Jk	.	.	.
.	.	.	8b/L	.	8dd\L	.	.	.
.	.	.	8b/J	.	8dd\J	.	.	.
=76	=76	=76	=76	=76	=76	=76	=76-	=76
!	!	!	!LO:TX:a:t=P:problem=# above	!	!	!	!	!
4A\	#	.	8.cc#X\L	.	8.ee\L	.	1r	.
.	.	.	16dd\Jk	.	16ff#\Jk	.	.	.
4G\	6	.	16ee\LL	.	16gg\LL	.	.	.
.	.	.	16dd\	.	16ff#\	.	.	.
.	.	.	16cc#\	.	16ee\	.	.	.
.	.	.	16dd\JJ	.	16ff#\JJ	.	.	.
!	!	!	!LO:TX:a:t=P:problem=# above	!	!	!	!	!
4A\	.	.	4cc#X\	.	8.ee\L	.	.	.
.	.	.	.	.	16dd\Jk	.	.	.
4D/	.	.	4dd\	.	4dd\	.	.	.
*custos:GG	*	*	*	*	*	*	*	*
!LO:LB:g=original	!	!	!	!	!	!	!	!
=77	=77	=77	=77-	=77	=77-	=77	=77-	=77
!LO:TX:b:t=c	!	!	!	!	!	!	!	!
4GG/	.	.	1r	.	1r	.	8.dd\	dul-
.	.	.	.	.	.	.	16b\	-cis
*	*	*	*	*	*	*	*	*ij
8C/L	.	.	.	.	.	.	8ee\	dul-
8D/J	.	.	.	.	.	.	16dd\LL	-cis
*	*	*	*	*	*	*	*	*Xij
.	.	.	.	.	.	.	16cc\JJ	.
!LO:TX:a:t=P:problem=mixed beam	!	!	!	!	!	!	!	!
8E\L	.	.	.	.	.	.	8b\	hoſ-
8AA/J	.	.	.	.	.	.	8cc\	-pes
4E\	#	.	.	.	.	.	8.b\	a-
.	.	.	.	.	.	.	16a\	-ni-
*	*	*	*	*	*custos:cc	*	*custos:a	*
!	!	!	!	!	!LO:LB:g=original	!	!LO:LB:g=original	!
=78	=78	=78	=78-	=78	=78-	=78	=78	=78
8AA/L	-	.	(8a/L	.	(8cc\L	.	4a\	-mae
8D/J	.	.	16g/L	.	16b\L	.	.	.
.	.	.	16f#/JJ)	.	16a\JJ)	.	.	.
8GG/L	.	.	(8b/L	.	(8dd\L	.	4r	.
8C/J	6	.	16a/L	.	16cc\L	.	.	.
.	.	.	16g/JJ)	.	16b\JJ)	.	.	.
2D/	#	.	8.f#/L	.	8.a/L	.	2r	.
.	.	.	16e/Jk	.	16g/Jk	.	.	.
.	.	.	4f#/	.	4a/	.	.	.
=79	=79	=79	=79	=79	=79	=79	=79-	=79
8GG/L	.	.	8.g/L	.	8.b\L	.	1r	.
8AA/	.	.	.	.	.	.	.	.
.	.	.	16a/Jk	.	16cc\Jk	.	.	.
8BB/	.	.	16b/LL	.	16dd\LL	.	.	.
.	.	.	16a/J	.	16cc\	.	.	.
8C/J	.	.	8g/J	.	16b\	.	.	.
.	.	.	.	.	16cc\JJ	.	.	.
4D/	#	.	8.g/L	.	8.a/L	.	.	.
.	.	.	16f#/Jk	.	16g/Jk	.	.	.
4GG/	.	.	4g/	.	4g/	.	.	.
=80	=80	=80	=80-	=80	=80-	=80	=80-	=80
!LO:TX:b:t=c	!	!	!	!	!	!	!	!
8G\L	.	.	0r	.	0r	.	8.b\	dul-
8F#\	.	.	.	.	.	.	.	.
.	.	.	.	.	.	.	16b\	-ce
8E\	.	.	.	.	.	.	8b\	re-
16D\L	.	.	.	.	.	.	8ee\	-fri-
16C\JJ	.	.	.	.	.	.	.	.
2BB/	#	.	.	.	.	.	8.dd#X\	-ge-
.	.	.	.	.	.	.	16cc\	-ri
.	.	.	.	.	.	.	4b\	-um
=81	=81	=81	=81	=81	=81	=81	=81	=81
2AA#X/	6	.	.	.	.	.	4r	.
.	.	.	.	.	.	.	8.ff#\	dul-
.	.	.	.	.	.	.	16ee\	-ce
*	*	*	*	*	*	*	*	*ij
2BB/	#	.	.	.	.	.	(8dd#X\L	dul-
.	.	.	.	.	.	.	8cc\J)	.
.	.	.	.	.	.	.	4b\	-ce
*	*	*	*	*	*	*	*	*Xij
=82	=82	=82	=82-	=82	=82-	=82	=82	=82
8AA/L	.	.	1r	.	1r	.	(8cc\L	re-
8BB/	.	.	.	.	.	.	8b\J)	.
8C/	.	.	.	.	.	.	(8a\L	-fri-
8AA/J	.	.	.	.	.	.	8g\J)	.
4BB/	#	.	.	.	.	.	8.f#/	-ge-
.	.	.	.	.	.	.	16e/	-ri-
4E\	.	.	.	.	.	.	4e/	-um
=83	=83	=83	=83-	=83	=83-	=83	=83-	=83
8E\L	-	.	8.ee\L	.	8.gg\L	.	00r	.
8F#\	.	.	.	.	.	.	.	.
.	.	.	16ee\Jk	.	16gg\Jk	.	.	.
8G\	.	.	8.ee\L	.	8.gg\L	.	.	.
8A\J	.	.	.	.	.	.	.	.
!	!	!	!LO:TX:a:t=P:problem=# above	!	!	!	!	!
.	.	.	16dd#X\Jk	.	16ff#\Jk	.	.	.
4B\	#	.	8.dd#\L	.	8.ff#\L	.	.	.
.	.	.	16dd#\Jk	.	16ff#\Jk	.	.	.
!	!	!	!	!	!LO:TX:a:t=P:problem=mixed beam	!	!	!
4BB/	#	.	8.ff#\L	.	8bb\L	.	.	.
.	.	.	.	.	8b/J	.	.	.
.	.	.	16ff#\Jk	.	.	.	.	.
=84	=84	=84	=84	=84	=84	=84	=84	=84
8C/L	.	.	8.gg\L	.	8.ee\L	.	.	.
8BB/J	.	.	.	.	.	.	.	.
.	.	.	16gg\Jk	.	16ee\Jk	.	.	.
*	*	*	*custos:aa	*	*	*	*	*
!	!	!	!LO:LB:g=original	!	!	!	!	!
4AA/	6	.	8aa\L	.	8.ee\L	.	.	.
.	.	.	8gg\J	.	.	.	.	.
.	.	.	.	.	16ff#\Jk	.	.	.
*custos:BB	*	*	*	*	*	*	*	*
!LO:LB:g=original	!	!	!	!	!	!	!	!
!	!	!	!	!	!LO:TX:a:t=P:problem=# above	!	!	!
2BB/	#	.	8.ff#\L	.	8.dd#X\L	.	.	.
.	.	.	16ee\Jk	.	16cc\Jk	.	.	.
!	!	!	!LO:TX:a:t=P:problem=# above	!	!	!	!	!
.	.	.	4dd#X\	.	4b/	.	.	.
=85	=85	=85	=85	=85	=85	=85	=85	=85
8C/L	.	.	8cc\L	.	8.ee\L	.	.	.
8GG/J	.	.	8b\J	.	.	.	.	.
.	.	.	.	.	16dd\Jk	.	.	.
8AA/L	.	.	16a/LL	.	16cc\LL	.	.	.
.	.	.	16b/	.	16dd\	.	.	.
8BB/J	.	.	16a/	.	16cc\	.	.	.
*	*	*	*	*	*custos:b	*	*	*
!	!	!	!	!	!LO:LB:g=original	!	!	!
.	.	.	16g/JJ	.	16b\JJ	.	.	.
8C/L	6 #	.	8.g/L	.	4a/	.	.	.
8D/J	#	.	.	.	.	.	.	.
.	.	.	16f#/Jk	.	.	.	.	.
4GG/	.	.	4g/	.	4g/	.	.	.
=86	=86	=86	=86	=86	=86	=86	=86	=86
4E\	.	.	8g/L	.	8b/L	.	.	.
.	.	.	8e/J	.	8g/J	.	.	.
4AA/	6	.	16f#/LL	.	16a/LL	.	.	.
.	.	.	16g/	.	16b/	.	.	.
.	.	.	16f#/	.	16a/	.	.	.
.	.	.	16e/JJ	.	16g/JJ	.	.	.
4BB/	.	.	8.e/L	.	4f#/	.	.	.
!	!	!	!LO:TX:b:t=P:problem=# below	!	!	!	!	!
.	.	.	16d#X/Jk	.	.	.	.	.
4E\	.	.	4e/	.	4e/	.	.	.
=87	=87	=87	=87	=87	=87	=87	=87-	=87
*M3/8	*	*	*M3/8	*	*M3/8	*	*M3/8	*
!LO:TX:b:t=Allegro. In labore	!	!	!LO:TX:b:t=Allegro. In labore	!	!LO:TX:b:t=Allegro. In labore	!	!LO:TX:b:t=Allegro	!
!	!	!	!LO:N:vis=00	!	!LO:N:vis=00	!	!	!
4E\	.	.	1.r	.	1.r	.	8r	.
.	.	.	.	.	.	.	8e/	In
8D#X/	6	.	.	.	.	.	8f#/	la-
=88	=88	=88	=88	=88	=88	=88	=88	=88
4.E\	.	.	.	.	.	.	(8g/L	-bo-
.	.	.	.	.	.	.	8e/J)	.
.	.	.	.	.	.	.	8b\	-re
*	*	*	*	*	*	*	*custos:ee	*
!	!	!	!	!	!	!	!LO:PB:g=original	!
=89	=89	=89	=89	=89	=89	=89	=89	=89
4.C/	7	.	.	.	.	.	16ee\LL	la-
!	!	!	!	!	!	!	!LO:TX:a:t=P:problem=# above	!
.	.	.	.	.	.	.	16dd#X\	.
.	.	.	.	.	.	.	16ee\	.
.	6	.	.	.	.	.	16ff#\	.
.	.	.	.	.	.	.	16ee\	.
.	.	.	.	.	.	.	16ff#\JJ	.
=90	=90	=90	=90	=90	=90	=90	=90	=90
4BB/	#	.	.	.	.	.	(8dd#X\L	-bo-
.	.	.	.	.	.	.	8ee\J)	.
8AA#X/	.	.	.	.	.	.	8ff#\	-re
=91	=91	=91	=91-	=91	=91	=91	=91	=91
4BB/	#	.	8r	.	8r	.	8.dd#X\	re-
.	.	.	8f#/L	.	8b/L	.	.	.
.	.	.	.	.	.	.	16cc\	-qui-
8r	.	.	8f#/J	.	8a/J	.	8b\	-es
=92	=92	=92	=92	=92	=92	=92	=92-	=92
!	!	!	!	!	!	!	!LO:N:vis=0	!
4E\	.	.	16b/LL	.	16g/LL	.	2.r	.
.	.	.	16a/	.	16f#/	.	.	.
.	.	.	16g/	.	16e/	.	.	.
.	.	.	16f#/JJ	.	16f#/	.	.	.
8r	.	.	8e/	.	16g/	.	.	.
.	.	.	.	.	16a/JJ	.	.	.
=93-	=93	=93	=93	=93	=93	=93	=93	=93
4E\	.	.	8g/L	.	8b\L	.	.	.
.	.	.	8g/	.	8b\	.	.	.
8r	.	.	8g/J	.	8ee\J	.	.	.
=94-	=94	=94	=94	=94	=94	=94	=94-	=94
!LO:TX:b:t=c	!	!	!	!	!LO:TX:a:t=P:problem=# above	!	!	!
4BB/	#	.	8f#/	.	4dd#X\	.	8r	.
.	.	.	8r	.	.	.	8b\	in
8r	.	.	8r	.	8r	.	8b\	la-
=95-	=95	=95	=95	=95	=95	=95	=95	=95
4E\	.	.	8r	.	8r	.	16g/LL	-bo-
.	.	.	.	.	.	.	16f#/	.
.	.	.	8g/L	.	8e/L	.	16e/	.
.	.	.	.	.	.	.	16f#/	.
8r	.	.	8f#/J	.	8f#/J	.	16g/	.
.	.	.	.	.	.	.	16a/JJ	.
*	*	*	*custos:e	*	*	*	*	*
!	!	!	!LO:LB:g=original	!	!	!	!	!
=96-	=96	=96	=96	=96	=96	=96	=96	=96
4E\	.	.	8e/	.	8g/L	.	8b\	.
.	.	.	8r	.	8e/	.	8b\	-re
8r	.	.	8r	.	8b/J	.	8r	.
=97-	=97	=97	=97	=97	=97	=97	=97	=97
4E\	.	.	16g/LL	.	16ee\LL	.	8r	.
.	.	.	16f#/	.	16dd\	.	.	.
.	.	.	16g/	.	16ee\	.	8gg\	in
.	.	.	16a/	.	16ff#\	.	.	.
8r	.	.	16g/	.	16ee\	.	8ee\	la-
.	.	.	16a/JJ	.	16ff#\JJ	.	.	.
=98	=98	=98	=98	=98	=98	=98	=98	=98
!	!	!	!	!	!LO:TX:a:t=P:problem=# above	!	!LO:TX:a:t=P:problem=# above	!
4BB/	.	.	8f#/	.	4dd#X\	.	8dd#X\	-bo-
.	.	.	8r	.	.	.	8b\	-re
8r	.	.	8r	.	8r	.	8r	.
*	*	*	*	*	*custos:b	*	*	*
!	!	!	!	!	!LO:LB:g=original	!	!	!
=99-	=99	=99	=99	=99	=99	=99	=99	=99
4E\	.	.	16g/LL	.	16b/LL	.	4.ee\	la-
.	.	.	16a/	.	16a/	.	.	.
.	.	.	16b/	.	16g/	.	.	.
.	.	.	16a/	.	16f#/	.	.	.
8r	.	.	16b/	.	16g/	.	.	.
.	.	.	16cc/JJ	.	16a/JJ	.	.	.
*custos:BB	*	*	*	*	*	*	*	*
!LO:LB:g=original	!	!	!	!	!	!	!	!
=100	=100	=100	=100	=100	=100	=100	=100	=100
4BB/	.	.	8b/L	.	16f#/LL	.	4.dd#X\	.
.	.	.	.	.	16e/	.	.	.
!	!	!	!	!	!LO:TX:b:t=P:problem=# below	!	!	!
.	.	.	8b/	.	16d#X/	.	.	.
.	.	.	.	.	16e/	.	.	.
8r	.	.	8f#/J	.	16f#/	.	.	.
!	!	!	!	!	!LO:TX:b:t=P:problem=# below	!	!	!
.	.	.	.	.	16d#X/JJ	.	.	.
=101	=101	=101	=101	=101	=101	=101	=101	=101
4E\	.	.	16gg\LL	.	16ee\LL	.	4.ee\	.
.	.	.	16ff#\	.	16dd\	.	.	.
.	.	.	16ee\	.	16ee\	.	.	.
.	.	.	16dd\	.	16ff#\	.	.	.
8r	.	.	16ee\	.	16gg\	.	.	.
.	.	.	16ff#\JJ	.	16aa\JJ	.	.	.
=102	=102	=102	=102	=102	=102	=102	=102	=102
4E\	.	.	16gg\LL	.	16bb\LL	.	4.ee\	-bo-
.	.	.	16ff#\	.	16aa\	.	.	.
.	.	.	16gg\	.	16bb\	.	.	.
.	.	.	16aa\	.	16ccc\	.	.	.
8r	.	.	16gg\	.	16bb\	.	.	.
.	.	.	16ff#\JJ	.	16aa\JJ	.	.	.
=103	=103	=103	=103	=103	=103	=103	=103	=103
4E\	.	.	16ee\LL	.	16gg\LL	.	4.ee\	-re
.	.	.	16dd\	.	16ff#\	.	.	.
.	.	.	16cc\	.	16ee\	.	.	.
.	.	.	16b\	.	16dd\	.	.	.
8r	.	.	16a\	.	16cc\	.	.	.
.	.	.	16g\JJ	.	16b\JJ	.	.	.
*	*	*	*	*	*	*	*custos:ee	*
!	!	!	!	!	!	!	!LO:LB:g=original	!
=104	=104	=104	=104	=104	=104	=104	=104	=104
4E\	.	.	16e/LL	.	16g/LL	.	8.ee\	re-
.	.	.	16f#/	.	16f#/	.	.	.
.	.	.	16g/	.	16e/	.	.	.
.	.	.	16f#/	.	16f#/	.	16ee\	-qu-
8r	.	.	16g/	.	16g/	.	8b\	-ies
.	.	.	16a/JJ	.	16a/JJ	.	.	.
=105	=105	=105	=105	=105	=105	=105	=105	=105
4.G#X\	6	.	4f#/	.	4b/	.	8r	.
.	.	.	.	.	.	.	8ee\	in
.	.	.	8r	.	8r	.	8dd\	la-
=106	=106	=106	=106-	=106	=106-	=106	=106	=106
!	!	!	!LO:N:vis=0	!	!LO:N:vis=0	!	!	!
4A\	.	.	2.r	.	2.r	.	8cc\	-bo-
.	.	.	.	.	.	.	(16b\LL	.
.	.	.	.	.	.	.	16dd\)	.
8F#\	6	.	.	.	.	.	(16ee\	-re
.	.	.	.	.	.	.	16dd\JJ)	.
=107	=107	=107	=107	=107	=107	=107	=107	=107
8G\	.	.	.	.	.	.	8.b\	re-
4D/	.	.	.	.	.	.	.	.
.	.	.	.	.	.	.	16a\	-qu-
.	.	.	.	.	.	.	8g/	-ies
=108	=108	=108	=108-	=108	=108-	=108	=108	=108
8G\	.	.	4.r	.	4.r	.	8g/	in
4E\	.	.	.	.	.	.	4b\	la-
*	*	*	*custos:b	*	*custos:ee	*	*	*
!	!	!	!LO:LB:g=original	!	!LO:PB:g=original	!	!	!
=109	=109	=109	=109-	=109	=109-	=109	=109	=109
4E\	.	.	16b\LL	.	16ee\LL	.	4.b\	-bo-
.	.	.	16ee\	.	16gg\	.	.	.
.	.	.	16ee\	.	16gg\	.	.	.
.	.	.	16ee\	.	16gg\	.	.	.
8r	.	.	16ee\	.	16gg\	.	.	.
!	!	!	!LO:TX:a:t=P:problem=# above	!	!	!	!	!
.	.	.	16dd#X\JJ	.	16ff#\JJ	.	.	.
=110	=110	=110	=110	=110	=110	=110	=110-	=110
!	!	!	!LO:SIC:s=dd#:v	!	!	!	!	!
4BB/	#	.	16dd\LL	.	16ff#\LL	.	4.b\	.
!	!	!	!LO:SIC:s=dd#:v	!	!	!	!	!
.	.	.	16dd\	.	16ff#\	.	.	.
!	!	!	!LO:SIC:s=dd#:v	!	!	!	!	!
.	.	.	16dd\	.	16ff#\	.	.	.
!	!	!	!LO:SIC:s=dd#:v	!	!	!	!	!
.	.	.	16dd\	.	16ff#\	.	.	.
!	!	!	!LO:SIC:s=dd#:v	!	!	!	!	!
8r	.	.	16dd\	.	16bb\	.	.	.
.	.	.	16b\JJ	.	16ff#\JJ	.	.	.
=111	=111	=111	=111	=111	=111	=111	=111-	=111
4E\	.	.	16g/LL	.	16ee\LL	.	4.b\	.
.	.	.	16g/	.	16ee\	.	.	.
.	.	.	16g/	.	16ee\	.	.	.
.	.	.	16g/	.	16ee\	.	.	.
8r	.	.	16g/	.	16ee\	.	.	.
!	!	!	!	!	!LO:TX:a:t=P:problem=# above	!	!	!
.	.	.	16f#/JJ	.	16ff#X\JJ	.	.	.
=112	=112	=112	=112	=112	=112	=112	=112-	=112
!	!	!	!	!	!LO:TX:a:t=P:problem=# above	!	!	!
4BB/	.	.	16f#/LL	.	16dd#X\LL	.	4.b\	.
.	.	.	16f#/	.	16dd#\	.	.	.
.	.	.	16b/	.	16dd#\	.	.	.
.	.	.	16b/	.	16ee\	.	.	.
8r	.	.	16f#/	.	16ff#\	.	.	.
.	.	.	16f#/JJ	.	16b\JJ	.	.	.
=113	=113	=113	=113	=113	=113	=113	=113-	=113
4E\	.	.	16ee\LL	.	16g/LL	.	4.b\	.
.	.	.	16ee\	.	16g/	.	.	.
.	.	.	16ee\	.	16g/	.	.	.
.	.	.	16ee\	.	16g/	.	.	.
!	!	!	!LO:TX:a:t=P:problem=# above	!	!	!	!	!
8r	.	.	16dd#X\	.	16g/	.	.	.
.	.	.	16dd#\JJ	.	16f#/JJ	.	.	.
=114	=114	=114	=114	=114	=114	=114	=114-	=114
!	!	!	!LO:TX:a:t=P:problem=# above	!	!	!	!	!
4BB/	.	.	16dd#X\LL	.	16f#/LL	.	4.b\	.
.	.	.	16dd#\	.	16f#/	.	.	.
.	.	.	16dd#\	.	16f#/	.	.	.
.	.	.	16ee\	.	16f#/	.	.	.
8r	.	.	16ff#\	.	16b/	.	.	.
.	.	.	16b\JJ	.	16f#/JJ	.	.	.
=115	=115	=115	=115	=115	=115	=115	=115-	=115
4E\	.	.	16ee\LL	.	16gg\LL	.	4.b\	.
.	.	.	16ee\	.	16gg\	.	.	.
.	.	.	16ee\	.	16gg\	.	.	.
.	.	.	16ee\	.	16gg\	.	.	.
8r	.	.	16ee\	.	16gg\	.	.	.
!	!	!	!LO:TX:a:t=P:problem=# above	!	!	!	!	!
.	.	.	16dd#X\JJ	.	16ff#\JJ	.	.	.
=116	=116	=116	=116	=116	=116	=116	=116-	=116
!	!	!	!LO:TX:a:t=P:problem=# above	!	!	!	!	!
4BB/	.	.	16dd#X\LL	.	16ff#\LL	.	4.b\	-re
.	.	.	16dd#\	.	16ff#\	.	.	.
.	.	.	16dd#\	.	16ff#\	.	.	.
!	!	!	!LO:TX:a:t=P:problem=# above	!	!	!	!	!
.	.	.	16dd#X\	.	16ff#\	.	.	.
8r	.	.	16dd#\	.	16bb\	.	.	.
.	.	.	16dd#\JJ	.	16ff#\JJ	.	.	.
*	*	*	*custos:ee	*	*custos:gg	*	*	*
!	!	!	!LO:LB:g=original	!	!LO:LB:g=original	!	!	!
=117	=117	=117	=117	=117	=117	=117	=117	=117
4E\	.	.	4.ee\	.	4.gg\	.	16ee\LL	re-
.	.	.	.	.	.	.	16dd#X\	.
.	.	.	.	.	.	.	16ee\	.
.	.	.	.	.	.	.	16ff#\	.
8r	.	.	.	.	.	.	16ee\	.
.	.	.	.	.	.	.	16ff#\JJ	.
*	*	*	*	*	*	*	*custos:ff	*
!	!	!	!	!	!	!	!LO:LB:g=original	!
=118	=118	=118	=118-	=118	=118-	=118	=118	=118
4BB/	.	.	4.dd\	.	4.ff#\	.	16dd#X\LL	.
.	.	.	.	.	.	.	16cc\	.
.	.	.	.	.	.	.	16dd#\	.
.	.	.	.	.	.	.	16ee\	.
8r	.	.	.	.	.	.	16ff#\	.
.	.	.	.	.	.	.	16b\JJ	.
*custos:E	*	*	*	*	*	*	*	*
!LO:PB:g=original	!	!	!	!	!	!	!	!
=119	=119	=119	=119-	=119	=119-	=119	=119	=119
4E\	.	.	4.b/	.	4.b/	.	16ee\LL	.
!	!	!	!	!	!	!	!LO:TX:a:t=P:problem=# above	!
.	.	.	.	.	.	.	16dd#X\	.
.	.	.	.	.	.	.	16ee\	.
.	.	.	.	.	.	.	16ff#\	.
8r	.	.	.	.	.	.	16ee\	.
.	.	.	.	.	.	.	16ff#\JJ	.
=120	=120	=120	=120-	=120	=120-	=120	=120	=120
!	!	!	!	!	!	!	!LO:TX:a:t=P:problem=# above	!
4BB/	.	.	4.b/	.	4.b/	.	16dd#X\LL	.
.	.	.	.	.	.	.	16cc\	.
.	.	.	.	.	.	.	16dd#\	.
.	.	.	.	.	.	.	16ee\	.
8r	.	.	.	.	.	.	16ff#\	.
.	.	.	.	.	.	.	16b\JJ	.
=121	=121	=121	=121-	=121	=121-	=121	=121	=121
4.GG#X/	6	.	4.b/	.	4.b/	.	16ee\LL	.
.	.	.	.	.	.	.	16dd\	.
.	.	.	.	.	.	.	16ee\	.
.	.	.	.	.	.	.	16b\	.
.	.	.	.	.	.	.	16cc\	.
.	.	.	.	.	.	.	16dd\JJ	.
=122	=122	=122	=122-	=122	=122-	=122	=122	=122
!	!	!	!LO:TX:a:t=3	!	!	!	!	!
!	!	!	!LO:N:vis=0	!	!LO:N:vis=0	!	!	!
8AA/L	-	.	2.r	.	2.r	.	8.cc\	.
8BB/	7	.	.	.	.	.	.	.
.	.	.	.	.	.	.	16b\	-qui-
8GG/J	.	.	.	.	.	.	8b\	-es
=123	=123	=123	=123	=123	=123	=123	=123	=123
!LO:TX:a:t=P:problem=mixed beam	!	!	!	!	!	!	!	!
8GG/L	.	.	.	.	.	.	8dd\	in
8G\	.	.	.	.	.	.	8g/	aeſ-
8F#\J	.	.	.	.	.	.	8a\	-tu
=124	=124	=124	=124-	=124	=124-	=124	=124	=124
8E\L	.	.	4.r	.	4.r	.	8b\	tem-
8C\	.	.	.	.	.	.	8.a\	-pe-
8D\J	.	.	.	.	.	.	.	.
!	!	!	!LO:TX:b:t=verte	!	!	!	!	!
.	.	.	.	.	.	.	16g/	-ri-
*	*	*	*custos:b	*	*	*	*	*
!	!	!	!LO:LB:g=original	!	!	!	!	!
=125	=125	=125	=125-	=125	=125-	=125	=125	=125
!	!	!	!	!	!LO:TX:a:t=P:problem=mixed beam	!	!	!
8GG/L	.	.	8b/L	.	8dd\L	.	8g/	-es
8BB/	.	.	8g/	.	8g/	.	8r	.
8C/J	.	.	8f#/J	.	8a/J	.	8r	.
=126	=126	=126	=126	=126	=126	=126	=126-	=126
8E\L	.	.	8g/L	.	8.b/L	.	4.r	.
8C\	.	.	8.g/	.	.	.	.	.
.	.	.	.	.	16a/K	.	.	.
8D\J	.	.	.	.	8g/J	.	.	.
.	.	.	16f#/Jk	.	.	.	.	.
*	*	*	*	*	*	*	*custos:dd	*
!	!	!	!	!	!	!	!LO:LB:g=original	!
=127	=127	=127	=127	=127	=127	=127	=127-	=127
8GG/L	.	.	4g/	.	4g/	.	8dd\	in
8BB/	.	.	.	.	.	.	8g/	aeſ-
8C/J	.	.	8r	.	8r	.	8a\	-tu
=128	=128	=128	=128-	=128	=128-	=128	=128	=128
8E\L	.	.	4.r	.	4.r	.	8b\	tem-
8C\	.	.	.	.	.	.	8.a\	-pe-
8D\J	.	.	.	.	.	.	.	.
.	.	.	.	.	.	.	16g/	-ri-
=129	=129	=129	=129-	=129	=129-	=129	=129	=129
!	!	!	!	!	!LO:TX:a:t=P:problem=mixed beam	!	!	!
8GG/L	.	.	8b/L	.	8dd\L	.	8g/	-es
8BB/	.	.	8g/	.	8g/	.	8r	.
8C/J	.	.	8f#/J	.	8a/J	.	8r	.
=130	=130	=130	=130	=130	=130	=130	=130-	=130
!	!	!	!	!	!	!	!LO:N:vis=0	!
8E\L	.	.	8gg\L	.	8bb\L	.	2.r	.
8C\	.	.	8.gg\	.	8.aa\	.	.	.
8D\J	.	.	.	.	.	.	.	.
.	.	.	16ff#\Jk	.	16gg\Jk	.	.	.
=131	=131	=131	=131	=131	=131	=131	=131	=131
4GG/	.	.	8gg\	.	8gg\	.	.	.
.	.	.	8r	.	8r	.	.	.
8r	.	.	8r	.	8r	.	.	.
=132	=132	=132	=132	=132	=132	=132	=132	=132
*M2/2	*	*	*M2/2	*	*M2/2	*	*M2/2	*
*met(c|)	*	*	*met(c|)	*	*met(c|)	*	*met(c|)	*
!LO:TX:b:t=adagio\n In fletu	!	!	!LO:TX:b:t=In fletu. adagio.	!	!LO:TX:b:t=Adagio. In fletu.	!	!LO:TX:a:t=adagio	!
4r	.	.	8e/L	.	8g#X/L	.	4r	.
.	.	.	(8e/	.	(8g#/	.	.	.
4E\	#	.	8e/	.	8g#/	.	4b\	In
.	.	.	8e/J)	.	8g#/J)	.	.	.
4AA/	.	.	8e/L	.	8a/L	.	4cc\	fle-
.	-	.	(8e/	.	(8a/	.	.	.
4AA/	.	.	8e/	.	8a/	.	4cc\	-tu
.	.	.	8e/J)	.	8a/J)	.	.	.
*custos:A	*	*	*	*	*	*	*	*
!LO:LB:g=original	!	!	!	!	!	!	!	!
=133	=133	=133	=133	=133	=133	=133	=133	=133
4r	.	.	8e/L	.	8a/L	.	4r	.
.	.	.	(8e/	.	(8a/	.	.	.
4A\	.	.	8e/	.	8a/	.	4cc\	in
.	.	.	8e/J)	.	8a/J)	.	.	.
*	*	*	*	*	*custos:a	*	*	*
!	!	!	!	!	!LO:LB:g=original	!	!	!
4F#\	6	.	8f#/L	.	8a/L	.	4dd\	fle-
.	.	.	(8f#/	.	(8a/	.	.	.
4F#\	.	.	8f#/	.	8a/	.	4dd\	-tu
.	.	.	8f#/J)	.	8a/J)	.	.	.
=134	=134	=134	=134	=134	=134	=134	=134	=134
4r	.	.	8f#/L	.	8f#/L	.	4r	.
.	.	.	8f#/	.	(8f#/	.	.	.
!	!	!	!	!	!	!	!LO:TX:a:t=P:problem=# above	!
*	*	*	*	*	*	*	*	*ij
4B\	#	.	8B/	.	8f#/	.	4dd#X\	in
.	.	.	8B/J	.	8f#/J)	.	.	.
4G#X\	6	.	(8B/L	.	8g#X/L	.	4ee\	fle-
.	.	.	8B/	.	8g#/	.	.	.
4G#\	.	.	8B/	.	8g#/	.	4ee\	-tu
*	*	*	*	*	*	*	*	*Xij
.	.	.	8B/J)	.	8g#/J	.	.	.
*	*	*	*custos:gg	*	*	*	*	*
!	!	!	!LO:LB:g=original	!	!	!	!	!
=135	=135	=135	=135	=135	=135	=135	=135	=135
!LO:TX:b:t=allegro	!	!	!LO:TX:b:t=Allegro	!	!LO:TX:b:t=Allegro	!	!LO:TX:a:t=allegro	!
8r	.	.	4r	.	4r	.	8r	.
8E\	.	.	.	.	.	.	8b\	ſo-
4E\	.	.	8r	.	8r	.	4ee\	-la
!	!	!	!LO:TX:a:t=P:problem=# above	!	!	!	!	!
.	.	.	8gg#X\	.	8bb\	.	.	.
!	!	!	!	!	!LO:TX:a:t=P:problem=# above	!	!	!
8r	.	.	4ee\	.	4gg#X\	.	8r	.
*	*	*	*	*	*	*	*	*ij
8E\	.	.	.	.	.	.	8b\	ſo-
4E\	.	.	8r	.	8r	.	4ee\	-la
*	*	*	*	*	*	*	*	*Xij
!	!	!	!LO:TX:a:t=P:problem=# above	!	!	!	!	!
.	.	.	8gg#X\	.	8bb\	.	.	.
=136	=136	=136	=136	=136	=136	=136	=136	=136
!	!	!	!	!	!LO:TX:a:t=P:problem=# above	!	!	!
8r	.	.	4ee\	.	4gg#X\	.	8r	.
8E\	.	.	.	.	.	.	8b\	ſo-
4E\	.	.	8r	.	8r	.	4ee\	-la
!	!	!	!LO:TX:b:t=P:problem=# below	!	!	!	!	!
.	.	.	8g#X/	.	8b/	.	.	.
*	*	*	*	*	*	*	*custos:b	*
!	!	!	!	!	!	!	!LO:LB:g=original	!
8r	.	.	4g#/	.	4ee\	.	8r	.
*	*	*	*	*	*	*	*	*ij
8E\	.	.	.	.	.	.	8b\	ſo-
4E\	.	.	8r	.	8r	.	4ee\	-la
*	*	*	*	*	*	*	*	*Xij
.	.	.	8g#/	.	8b/	.	.	.
=137	=137	=137	=137	=137	=137	=137	=137	=137
!	!	!	!LO:SIC:s=g#:v	!	!	!	!	!
4E\	.	.	4g/	.	4ee\	.	8r	.
.	.	.	.	.	.	.	8ee\	ſo-
4F#\	.	.	4r	.	4r	.	8.dd#X\	-la-
.	.	.	.	.	.	.	16cc\	-ti-
8G#X\L	6	.	2r	.	2r	.	8b\	-um
*	*	*	*	*	*	*	*	*ij
8A\J	.	.	.	.	.	.	8ee\	ſo-
4B\	#	.	.	.	.	.	8.ee\	-la-
!	!	!	!	!	!LO:TX:a:t=Vi	!	!LO:TX:a:t=P:problem=# above	!
.	.	.	.	.	.	.	16dd#X\	-ti-
=138	=138	=138	=138	=138	=138	=138	=138	=138
!	!	!	!	!	!LO:TX:a:t=P:problem=nie ma "-de", dwa takty puste	!	!	!
4E\	#	.	8r	.	1ryy	.	4ee\	-um
*	*	*	*	*	*	*	*	*Xij
!	!	!	!LO:TX:a:t=P:problem=# above	!	!	!	!	!
.	.	.	8gg#X\	.	.	.	.	.
8r	.	.	8.ee\L	.	.	.	4r	.
8BB/	.	.	.	.	.	.	.	.
.	.	.	16dd\Jk	.	.	.	.	.
4E\	.	.	8ee\L	.	.	.	2r	.
.	.	.	8ff#\J	.	.	.	.	.
8r	.	.	8.ee\L	.	.	.	.	.
8BB/	.	.	.	.	.	.	.	.
!	!	!	!LO:TX:a:t=P:problem=# above	!	!	!	!	!
.	.	.	16dd#X\Jk	.	.	.	.	.
=139	=139	=139	=139	=139	=139	=139	=139	=139
4E\	#	.	4ee\	.	1ryy	.	8r	.
.	.	.	.	.	.	.	8ee\	ſo-
!	!	!	!	!	!	!	!LO:TX:a:t=P:problem=# above	!
4F#\	.	.	4r	.	.	.	8.dd#X\	-la-
.	.	.	.	.	.	.	16cc\	-ti-
8G#X\L	.	.	2r	.	.	.	8b\	-um
*	*	*	*	*	*	*	*	*ij
8A\J	.	.	.	.	.	.	8ee\	ſo-
4B\	#	.	.	.	.	.	8.ee\	-la-
!	!	!	!	!	!	!	!LO:TX:a:t=P:problem=# above	!
.	.	.	.	.	.	.	16dd#X\	-ti-
*custos:E	*	*	*	*	*	*	*	*
!LO:LB:g=original	!	!	!	!	!	!	!	!
=140	=140	=140	=140	=140	=140	=140	=140	=140
4E\	#	.	8r	.	8r	.	4ee\	-um
*	*	*	*	*	*	*	*	*Xij
!	!	!	!LO:TX:a:t=P:problem=# above	!	!LO:TX:b:t=Regete	!	!	!
.	.	.	8gg#X\	.	8bb\	.	.	.
!	!	!	!	!	!LO:TX:a:t=P:problem=# above	!	!	!
8r	.	.	8.ee\L	.	8.gg#X\L	.	4r	.
8BB/	.	.	.	.	.	.	.	.
!	!	!	!LO:TX:a:t=P:problem=# above	!	!	!	!	!
.	.	.	16dd#X\Jk	.	16ff#\Jk	.	.	.
4E\	.	.	8ee\L	.	8.gg#\L	.	2r	.
.	.	.	8ff#\J	.	.	.	.	.
.	.	.	.	.	16aa\Jk	.	.	.
!	!	!	!LO:TX:a:t=P:problem=# above	!	!	!	!	!
8r	.	.	16gg#X\LL	.	16bb\LL	.	.	.
.	.	.	16ff#\	.	16aa\	.	.	.
!	!	!	!	!	!LO:TX:a:t=P:problem=# above	!	!	!
8BB/	.	.	16ee\	.	16gg#X\	.	.	.
.	.	.	16dd#\JJ	.	16ff#\JJ	.	.	.
=141	=141	=141	=141	=141	=141	=141	=141	=141
!LO:TX:a:t=P:problem=mixed beam	!	!	!	!	!LO:TX:a:t=P:problem=# above	!	!	!
8E\L	.	.	4ee\	.	4gg#X\	.	8r	.
8G#X\	.	.	.	.	.	.	8ee\	so-
8B\	#	.	4r	.	4r	.	8.ee\	-la-
8BB/J	.	.	.	.	.	.	.	.
!	!	!	!	!	!	!	!LO:TX:a:t=P:problem=# above	!
.	.	.	.	.	.	.	16dd#X\	-ti-
*	*	*	*custos:gg	*	*custos:bb	*	*	*
!LO:TX:a:t=P:problem=mixed beam	!	!	!LO:LB:g=original	!	!LO:LB:g=original	!	!	!
8E\L	.	.	8r	.	8r	.	4ee\	-um
!	!	!	!LO:SIC:s=gg#:v	!	!	!	!	!
8G#X\	.	.	8gg\	.	8bb\L	.	.	.
!	!	!	!	!	!LO:TX:a:t=P:problem=# above	!	!	!
8B\	#	.	8.ee\L	.	8.gg#X\	.	4r	.
8BB/J	.	.	.	.	.	.	.	.
!	!	!	!LO:TX:a:t=P:problem=# above	!	!	!	!	!
.	.	.	16dd#X\Jk	.	16ff#\Jk	.	.	.
*	*	*	*	*	*	*	*custos:ee	*
!	!	!	!	!	!	!	!LO:LB:g=original	!
=142	=142	=142	=142	=142	=142	=142	=142	=142
!LO:TX:a:t=P:problem=mixed beam	!	!	!	!	!LO:TX:a:t=P:problem=# above	!	!	!
8E\L	.	.	4ee\	.	4gg#X\	.	8r	.
*	*	*	*	*	*	*	*	*ij
8G#X\	.	.	.	.	.	.	8ee\	ſo-
8B\	.	.	4r	.	4r	.	8.ee\	-la-
8BB/J	.	.	.	.	.	.	.	.
!	!	!	!	!	!	!	!LO:TX:a:t=P:problem=# above	!
.	.	.	.	.	.	.	16dd#X\	-ti-
!LO:TX:a:t=P:problem=mixed beam	!	!	!	!	!	!	!	!
8E\L	.	.	8r	.	8r	.	4ee\	-um
*	*	*	*	*	*	*	*	*Xij
!	!	!	!LO:TX:a:t=P:problem=# above	!	!	!	!	!
8G#X\	.	.	8gg#X\L	.	8bb\L	.	.	.
!	!	!	!	!	!LO:TX:a:t=P:problem=# above	!	!	!
8B\	.	.	8.ee\	.	8.gg#X\	.	4r	.
8BB/J	.	.	.	.	.	.	.	.
!	!	!	!LO:TX:a:t=P:problem=# above	!	!	!	!	!
.	.	.	16dd#X\Jk	.	16ff#\Jk	.	.	.
=143	=143	=143	=143	=143	=143	=143	=143	=143
!	!	!	!	!	!LO:TX:a:t=P:problem=# above	!	!LO:TX:b:t=Preſto	!
8r	.	.	16ee\LL	.	16gg#X\LL	.	8r	.
!	!	!	!LO:SIC:s=166gg#:v	!	!	!	!	!
.	.	.	16gg\	.	16bb\	.	.	.
!	!	!	!LO:TX:a:t=P:problem=# above	!	!	!	!	!
8E\L	.	.	16gg#X\	.	16bb\	.	8ee\	ſo-
.	.	.	16gg#\JJ	.	16bb\JJ	.	.	.
!	!	!	!	!	!LO:TX:a:t=P:problem=# above	!	!	!
8E\	.	.	16ee\LL	.	16gg#X\LL	.	8.ee\	-la-
.	.	.	16b\	.	16ee\	.	.	.
8E\J	.	.	16b\	.	16ee\	.	.	.
.	.	.	16b\JJ	.	16ee\JJ	.	16b\	-ti-
4E\	.	.	16b\LL	.	16ee\LL	.	8b\	-um
.	.	.	16ee\	.	16gg#\	.	.	.
!	!	!	!	!	!LO:TX:a:t=P:problem=# above	!	!	!
*	*	*	*	*	*	*	*	*ij
.	.	.	16ee\	.	16gg#X\	.	8b\	ſo-
.	.	.	16ee\JJ	.	16gg#\JJ	.	.	.
8r	.	.	16b/LL	.	16ee\LL	.	8.g/	-la-
!	!	!	!LO:SIC:s=16g#:v	!	!	!	!	!
.	.	.	16g/	.	16b\	.	.	.
!	!	!	!LO:TX:b:t=P:problem=# below	!	!	!	!	!
8E\	.	.	16g#/	.	16b\	.	.	.
.	.	.	16g#/JJ	.	16b\JJ	.	16e/	-ti-
=144	=144	=144	=144	=144	=144	=144	=144	=144
!LO:TX:a:t=P:problem=mixed beam	!	!	!	!	!LO:TX:b:t=P:problem=# below	!	!	!
8E\L	.	.	16e/LL	.	16g#X/LL	.	8e/	-um
!	!	!	!LO:SIC:s=16g#:v	!	!	!	!	!
.	.	.	16g/	.	16b/	.	.	.
!	!	!	!LO:TX:b:t=P:problem=# below	!	!	!	!	!
8G#X\	.	.	16g#/	.	16b/	.	8g/	ſo-
.	.	.	16g#/JJ	.	16b/JJ	.	.	.
!	!	!	!LO:SIC:s=16d#:v	!	!LO:SIC:s=f#:v	!	!	!
8B\	.	.	16d/LL	.	16f#/LL	.	8.b\	-la-
!	!	!	!LO:TX:b:t=P:problem=# below	!	!LO:TX:b:t=P:problem=# below	!	!	!
.	.	.	16d#/	.	16f#X/	.	.	.
8BB/J	.	.	16d#/	.	16f#/	.	.	.
.	.	.	16d#/JJ	.	16f#/JJ	.	16b\	-ti-
8E\	.	.	8e/	.	4g#/	.	8e/	-um
*	*	*	*	*	*	*	*	*Xij
8r	.	.	8r	.	.	.	8r	.
4r	.	.	4r	.	4r	.	4r	.
*custos:E	*	*	*	*	*	*	*	*
!LO:LB:g=original	!	!	!	!	!	!	!	!
=145	=145	=145	=145-	=145	=145-	=145	=145	=145
*M2/2	*	*	*	*	*	*	*M2/2	*
*met(c|)	*	*	*	*	*	*	*met(c|)	*
!	!	!	!	!	!LO:TX:b:t=adagio	!	!	!
!LO:TX:b:t=Adagio	!	!	!LO:TX:b:t=adagio	!	!	!	!LO:TX:b:t=adagio	!
2E\	#	.	00r	.	00r	.	4r	.
.	.	.	.	.	.	.	(8ee\L	o
.	.	.	.	.	.	.	8b\J)	.
*	*	*	*	*	*	*	*2\right	*
2E\	.	.	.	.	.	.	2b\	lux
=146	=146	=146	=146	=146	=146	=146	=146	=146
2GG#X/	.	.	.	.	.	.	4r	.
.	.	.	.	.	.	.	8b\	o
.	.	.	.	.	.	.	8ee\	lux
8AA/L	.	.	.	.	.	.	(8cc\L	be-
8BB/	.	.	.	.	.	.	8b\J)	.
8C/	.	.	.	.	.	.	(8a\L	-a-
8D/J	.	.	.	.	.	.	8b\J)	.
*	*	*	*	*	*	*	*custos:g	*
!	!	!	!	!	!	!	!LO:LB:g=original	!
=147	=147	=147	=147	=147	=147	=147	=147	=147
!	!	!	!	!	!	!	!LO:TX:b:t=P:problem=# below	!
2E\	#	.	.	.	.	.	8.g#X/	-tiſ-
.	.	.	.	.	.	.	16f#/	-ſi-
.	.	.	.	.	.	.	4e/	-ma
2AA/	.	.	.	.	.	.	4r	.
.	.	.	.	.	.	.	8cc\	re-
.	.	.	.	.	.	.	8a\	-ple
=148	=148	=148	=148	=148	=148	=148	=148	=148
8AA/L	.	.	.	.	.	.	8.ee\	re-
8BB/	.	.	.	.	.	.	.	.
.	.	.	.	.	.	.	16dd\	-ple
8C/	.	.	.	.	.	.	(16cc\LL	cor-
.	.	.	.	.	.	.	16b\JJ)	.
8D/J	.	.	.	.	.	.	(16cc\LL	-dis
.	.	.	.	.	.	.	16dd\JJ)	.
2E\	#	.	.	.	.	.	8.b\	in-
.	.	.	.	.	.	.	16b\	-ti-
.	.	.	.	.	.	.	4b\	-ma
=149	=149	=149	=149-	=149	=149-	=149	=149	=149
4r	.	.	00r	.	00r	.	4r	.
8E\L	.	.	.	.	.	.	4b\	tu-
8D\J	.	.	.	.	.	.	.	.
8C/L	.	.	.	.	.	.	4ee\	-o-
8BB/J	.	.	.	.	.	.	.	.
4AA/	6	.	.	.	.	.	(16ff#\LL	-rum
.	.	.	.	.	.	.	16gg\JJ)	.
.	.	.	.	.	.	.	(16ff#\LL	fi-
.	.	.	.	.	.	.	16ee\JJ)	.
=150	=150	=150	=150	=150	=150	=150	=150	=150
2BB/	4 #	.	.	.	.	.	4.ee\	-de-
!	!	!	!	!	!	!	!LO:TX:a:t=P:problem=# above	!
.	3	.	.	.	.	.	8dd#X\	-li-
2E\	#	.	.	.	.	.	4ee\	-um
.	.	.	.	.	.	.	4r	.
=151	=151	=151	=151	=151	=151	=151	=151	=151
4r	.	.	.	.	.	.	4r	.
4E\	#	.	.	.	.	.	(8ee\L	tu-
.	.	.	.	.	.	.	8b\J)	.
2G#X\	6	.	.	.	.	.	4b\	-o-
.	.	.	.	.	.	.	4b\	-rum
=152	=152	=152	=152	=152	=152	=152	=152	=152
4r	.	.	.	.	.	.	4r	.
4AA/	.	.	.	.	.	.	4cc\	tu-
8D/L	#	.	.	.	.	.	4a\	-o-
8C/	.	.	.	.	.	.	.	.
*	*	*	*	*	*	*	*custos:dd	*
!	!	!	!	!	!	!	!LO:LB:g=original	!
8BB/	6	.	.	.	.	.	(16dd\LL	-rum
.	.	.	.	.	.	.	16cc\JJ)	.
8GG/J	.	.	.	.	.	.	(16b\LL	fi-
.	.	.	.	.	.	.	16cc\JJ)	.
=153	=153	=153	=153-	=153	=153-	=153	=153	=153
2D/	4	.	00r	.	00r	.	4.a\	-de-
.	3	.	.	.	.	.	8g/	-li-
4GG/	.	.	.	.	.	.	4g/	-um
4r	.	.	.	.	.	.	4r	.
*custos:D	*	*	*	*	*	*	*	*
!LO:LB:g=original	!	!	!	!	!	!	!	!
=154	=154	=154	=154	=154	=154	=154	=154	=154
4r	.	.	.	.	.	.	4r	.
4D#X/	6	.	.	.	.	.	4b\	tu-
2E\	-	.	.	.	.	.	(8.g/L	-o-
.	.	.	.	.	.	.	16f#/Jk)	.
.	.	.	.	.	.	.	4e/	-rum
=155	=155	=155	=155	=155	=155	=155	=155	=155
4r	.	.	.	.	.	.	4r	.
4AA/	.	.	.	.	.	.	4a\	tu-
8AA/L	.	.	.	.	.	.	(8a\L	-o-
8BB/	.	.	.	.	.	.	8g\J)	.
8C/	.	.	.	.	.	.	8.g/	-rum
8AA/J	.	.	.	.	.	.	.	.
.	.	.	.	.	.	.	16g/	fi-
=156	=156	=156	=156	=156	=156	=156	=156	=156
2BB/	4	.	.	.	.	.	4.f#/	-de-
.	3	.	.	.	.	.	8e/	-li-
4E\	.	.	.	.	.	.	4e/	-um
4r	.	.	.	.	.	.	4r	.
=157	=157	=157	=157-	=157	=157-	=157	=157	=157
*M3/8	*	*	*M3/8	*	*M3/8	*	*M3/8	*
!	!	!	!LO:TX:b:t=Allegro	!	!LO:TX:b:t=Allegro.	!	!LO:TX:a:t=allegro	!
!	!	!	!LO:N:vis=0	!	!LO:N:vis=0	!	!	!
4E\	-	.	2.r	.	2.r	.	8r	.
.	.	.	.	.	.	.	8b\	Si-
8r	.	.	.	.	.	.	8ee\	-ne
=158	=158	=158	=158	=158	=158	=158	=158	=158
!	!	!	!	!	!	!	!	!
4BB/	.	.	.	.	.	.	(8dd#X\L	tu-
.	.	.	.	.	.	.	8ee\J)	.
8r	.	.	.	.	.	.	8ff#\	-o
*	*	*	*	*	*	*	*custos:b	*
!	!	!	!	!	!	!	!LO:LB:g=original	!
=159-	=159	=159	=159-	=159	=159-	=159	=159	=159
4E\	.	.	8r	.	8r	.	8.b\	nu-
.	.	.	8g/L	.	8b\L	.	.	.
.	.	.	.	.	.	.	16b\	-mi-
8r	.	.	8g/J	.	8ee\J	.	8b\	-ne
*	*	*	*custos:f	*	*custos:dd	*	*	*
!	!	!	!LO:LB:g=original	!	!LO:LB:g=original	!	!	!
=160-	=160	=160	=160	=160	=160	=160	=160-	=160
!	!	!	!	!	!LO:TX:a:t=P:problem=# above	!	!	!
4BB/	.	.	8f#/L	.	8.dd#X\L	.	4.r	.
.	.	.	8g/	.	.	.	.	.
.	.	.	.	.	16ee\K	.	.	.
8r	.	.	8a/J	.	8ff#\J	.	.	.
=161-	=161	=161	=161	=161	=161	=161	=161-	=161
4E\	.	.	4e/	.	8.b/L	.	8r	.
.	.	.	.	.	.	.	8b\	ſi-
.	.	.	.	.	16b/K	.	.	.
8r	.	.	8r	.	8b/J	.	8ee\	-ne
=162-	=162	=162	=162	=162	=162-	=162	=162	=162
4BB/	.	.	4.r	.	4.r	.	(8dd#X\L	tu-
.	.	.	.	.	.	.	8ee\J)	.
8r	.	.	.	.	.	.	8ff#\	-o
=163-	=163	=163	=163-	=163	=163-	=163	=163	=163
4E\	.	.	8r	.	8r	.	8.b\	nu-
.	.	.	8g/L	.	8b\L	.	.	.
.	.	.	.	.	.	.	16b\	-mi-
8r	.	.	8g/J	.	8ee\J	.	8b\	-ne
=164-	=164	=164	=164	=164	=164	=164	=164	=164
!	!	!	!	!	!LO:TX:a:t=P:problem=# above	!	!	!
4BB/	.	.	8f#/L	.	8dd#X\L	.	4.r	.
.	.	.	8g/	.	8ee\	.	.	.
8r	.	.	8a/J	.	8ff#\J	.	.	.
=165	=165	=165	=165	=165	=165	=165	=165-	=165
!LO:TX:a:t=P:problem=mixed beam	!	!	!	!	!	!	!	!
8E\L	.	.	8e/	.	4b/	.	8r	.
8G\	.	.	8r	.	.	.	8b\	ni-
8GG/J	.	.	8r	.	8r	.	8cc\	-hil
=166	=166	=166	=166	=166	=166	=166	=166	=166
4GG/	.	.	8r	.	8r	.	8dd\	eſt
.	.	.	8g/L	.	8b\L	.	8r	.
8r	.	.	8a/J	.	8cc\J	.	8r	.
=167	=167	=167	=167	=167	=167	=167	=167	=167
4GG/	.	.	8b/	.	8dd\	.	8r	.
.	.	.	8r	.	8r	.	8b\	ni-
8r	.	.	8r	.	8r	.	8cc\	-hil
=168	=168	=168	=168	=168	=168	=168	=168	=168
4GG/	.	.	8r	.	8r	.	8dd\	est
.	.	.	8g/L	.	8b\L	.	8r	.
8r	.	.	8a/J	.	8cc\J	.	8r	.
*custos:GG	*	*	*	*	*	*	*	*
!LO:LB:g=original	!	!	!	!	!	!	!	!
=169	=169	=169	=169	=169	=169	=169	=169	=169
4GG/	.	.	8b/	.	8dd\	.	8r	.
.	.	.	8r	.	8r	.	8b\	ni-
8r	.	.	8r	.	8r	.	8cc\	-hil
*	*	*	*	*	*	*	*custos:dd	*
!	!	!	!	!	!	!	!LO:PB:g=original	!
=170	=170	=170	=170-	=170	=170-	=170	=170	=170
!	!	!	!LO:N:vis=0	!	!LO:N:vis=0	!	!	!
4GG/	.	.	2.r	.	2.r	.	8dd\	ni-
.	.	.	.	.	.	.	8b\	-hil
8C/	.	.	.	.	.	.	8ee\	eſt
=171	=171	=171	=171	=171	=171	=171	=171	=171
4.D/	.	.	.	.	.	.	8.a\	in
.	.	.	.	.	.	.	16a\	ho-
.	.	.	.	.	.	.	8g/	-mi-
=172	=172	=172	=172-	=172	=172-	=172	=172	=172
4.GG/	.	.	8r	.	8r	.	4g/	-ne
.	.	.	8g/L	.	8b\L	.	.	.
.	.	.	8a/J	.	8cc\J	.	8r	.
=173	=173	=173	=173	=173	=173	=173	=173-	=173
!	!	!	!	!	!	!	!LO:N:vis=0	!
4GG/	.	.	8b/L	.	8dd\L	.	2.r	.
.	.	.	8g/	.	8b\	.	.	.
8C/	.	.	8g/J	.	8ee\J	.	.	.
=174	=174	=174	=174	=174	=174	=174	=174	=174
4.D/	.	.	8g/L	.	8a/L	.	.	.
.	.	.	8.g/	.	8.a/	.	.	.
.	.	.	16f#/Jk	.	16g/Jk	.	.	.
*	*	*	*	*	*custos:g	*	*	*
!	!	!	!	!	!LO:LB:g=original	!	!	!
=175	=175	=175	=175	=175	=175	=175	=175-	=175
8GG/L	.	.	4g/	.	4g/	.	8r	.
8E/	-	.	.	.	.	.	8ee\	ni-
!	!	!	!	!	!	!	!LO:TX:a:t=P:problem=# above	!
8BB/J	#	.	8r	.	8r	.	8dd#X\	-hil
*	*	*	*custos:ee	*	*	*	*	*
!	!	!	!LO:LB:g=original	!	!	!	!	!
=176	=176	=176	=176	=176	=176	=176	=176	=176
4E\	.	.	16ee\LL	.	16gg\LL	.	8ee\	eſt
!	!	!	!LO:SIC:s=dd#:v	!	!	!	!	!
.	.	.	16dd\	.	16ff#\	.	.	.
.	.	.	16ee\	.	16gg\	.	8r	.
.	.	.	16ff#\JJ	.	16aa\	.	.	.
!	!	!	!LO:TX:a:t=P:problem=# above	!	!	!	!	!
8BB/	.	.	8dd#X\	.	16ff#\	.	8r	.
.	.	.	.	.	16gg\JJ	.	.	.
=177	=177	=177	=177	=177	=177	=177	=177	=177
4E\	.	.	4ee\	.	8ee\	.	8r	.
.	.	.	.	.	8r	.	8ee\	ni-
!	!	!	!	!	!	!	!LO:TX:a:t=P:problem=# above	!
8BB/	7	.	8r	.	8r	.	8dd#X\	-hil
=178	=178	=178	=178	=178	=178	=178	=178	=178
4E\	.	.	8r	.	8r	.	8ee\	eſt
.	.	.	8ee\L	.	8gg\L	.	8r	.
!	!	!	!LO:TX:a:t=P:problem=# above	!	!	!	!	!
8BB/	.	.	8dd#X\J	.	8ff#\J	.	8r	.
=179	=179	=179	=179	=179	=179	=179	=179	=179
!LO:TX:a:t=P:problem=brak taktu	!	!	!	!	!	!	!	!
4.ryy	.	.	4ee\	.	4ee\	.	8r	.
.	.	.	.	.	.	.	8gg\	ni-
.	.	.	8r	.	8r	.	8ff#\	-hil
=180	=180	=180	=180-	=180	=180-	=180	=180	=180
8C/L	.	.	4.r	.	4.r	.	(8ee\L	eſt
8BB/	.	.	.	.	.	.	8ff#\J)	.
!	!	!	!	!	!	!	!LO:N:vis=4	!
8AA/J	.	.	.	.	.	.	8ee\	in
=181	=181	=181	=181-	=181	=181-	=181	=181	=181
4BB/	#	.	8r	.	8r	.	8.ee\	ho-
.	.	.	8r	.	8r	.	.	.
.	.	.	.	.	.	.	16dd\	-mi-
8E\	.	.	16gg\LL	.	16bb\LL	.	8ee\	-ne
.	.	.	16ff#\JJ	.	16aa\JJ	.	.	.
=182	=182	=182	=182	=182	=182	=182	=182-	=182
!	!	!	!	!	!	!	!LO:N:vis=0	!
4.E\	.	.	16ee\LL	.	16gg\LL	.	2.r	.
!	!	!	!LO:TX:a:t=P:problem=# above	!	!	!	!	!
.	.	.	16dd#X\	.	16ff#\	.	.	.
.	.	.	16ee\	.	16gg\	.	.	.
.	.	.	16ff#\JJ	.	16aa\JJ	.	.	.
.	.	.	8gg\	.	8bb\	.	.	.
=183	=183	=183	=183	=183	=183	=183	=183	=183
4A\	6	.	16ff#\LL	.	(16aa\LL	.	.	.
.	.	.	16ee\JJ	.	16gg\JJ)	.	.	.
.	.	.	8.ee\L	.	8.ff#\L	.	.	.
8B\	#	.	.	.	.	.	.	.
.	.	.	16dd\Jk	.	16ee\Jk	.	.	.
=184	=184	=184	=184	=184	=184	=184	=184-	=184
4E\	.	.	8ee\	.	8ee\	.	4.r	.
.	.	.	8r	.	8r	.	.	.
8r	.	.	8r	.	8r	.	.	.
*	*	*	*	*	*	*	*custos:dd	*
!	!	!	!	!	!	!	!LO:LB:g=original	!
=185	=185	=185	=185	=185	=185	=185	=185-	=185
*M2/2	*	*	*M2/2	*	*M2/2	*	*M2/2	*
*met(c|)	*	*	*met(c|)	*	*met(c|)	*	*met(c|)	*
!LO:TX:b:t=Adagio.\n Da tuis.	!	!	!LO:TX:b:t=adagio	!	!LO:TX:b:t=adagio	!	!LO:TX:b:t=adagio	!
4G\	.	.	00r	.	00r	.	4r	.
4F#\	6	.	.	.	.	.	4dd\	Da
2G\	.	.	.	.	.	.	4b\	tu-
.	.	.	.	.	.	.	4b\	-is
=186	=186	=186	=186	=186	=186	=186	=186	=186
4C/	.	.	.	.	.	.	8r	.
.	.	.	.	.	.	.	8ee\	tu-
8AA/L	.	.	.	.	.	.	8.cc\	-is
16BB/L	.	.	.	.	.	.	.	.
16C/JJ	.	.	.	.	.	.	16b\	fi-
*custos:D	*	*	*	*	*	*	*	*
!LO:LB:g=original	!	!	!	!	!	!	!	!
2D/	.	.	.	.	.	.	4.a\	-de-
.	.	.	.	.	.	.	8g/	-li-
=187	=187	=187	=187	=187	=187	=187	=187	=187
2GG/	.	.	.	.	.	.	2g/	-bus
4r	.	.	.	.	.	.	4r	.
4G\	.	.	.	.	.	.	4g/	in
=188	=188	=188	=188	=188	=188	=188	=188	=188
2F#\	6	.	.	.	.	.	2dd\	te
4r	.	.	.	.	.	.	4r	.
8C/L	.	.	.	.	.	.	4g/	in
8BB/J	.	.	.	.	.	.	.	.
=189	=189	=189	=189-	=189	=189-	=189	=189	=189
8AA/L	.	.	00r	.	00r	.	(8cc\L	te
8BB/	.	.	.	.	.	.	8b\J)	.
8C/	.	.	.	.	.	.	(16a\LL	con-
.	.	.	.	.	.	.	16b\JJ)	.
8AA/J	.	.	.	.	.	.	(16a\LL	-fi-
.	.	.	.	.	.	.	16g\JJ)	.
4BB/	#	.	.	.	.	.	8.f#/	-den-
.	.	.	.	.	.	.	16e/	-ti-
4E\	.	.	.	.	.	.	4e/	-b(us)
=190	=190	=190	=190	=190	=190	=190	=190	=190
4r	.	.	.	.	.	.	4r	.
4G\	.	.	.	.	.	.	4g/	in
4F#\	6	.	.	.	.	.	4dd\	te
8E\L	.	.	.	.	.	.	8ee\	con-
8D\J	.	.	.	.	.	.	8ff#\	-fi-
*	*	*	*	*	*	*	*custos:ee	*
!	!	!	!	!	!	!	!LO:LB:g=original	!
=191	=191	=191	=191	=191	=191	=191	=191	=191
4G\	6 5	.	.	.	.	.	4.ee\	-den-
4A\	#	.	.	.	.	.	.	.
.	.	.	.	.	.	.	8dd\	-ti-
2D/	.	.	.	.	.	.	2dd\	-b(us)
=192	=192	=192	=192	=192	=192	=192	=192	=192
2F#\	6	.	.	.	.	.	(8dd\L	ſa-
.	.	.	.	.	.	.	8cc\J)	.
.	.	.	.	.	.	.	(8dd\L	-crum
.	.	.	.	.	.	.	8a\J)	.
4G\	.	.	.	.	.	.	(8b\L	ſep-
.	.	.	.	.	.	.	8a\J)	.
4C/	.	.	.	.	.	.	(8cc\L	-te-
.	.	.	.	.	.	.	8b\J)	.
=193	=193	=193	=193-	=193	=193-	=193	=193	=193
2D/	.	.	1r	.	1r	.	4.a\	-na-
.	.	.	.	.	.	.	8g/	-ri-
2GG/	.	.	.	.	.	.	2g/	-um
*	*	*	*	*	*custos:bb	*	*	*
!	!	!	!	!	!LO:LB:g=original	!	!	!
=194	=194	=194	=194-	=194	=194-	=194	=194-	=194
!LO:TX:b:t=viol&colon;	!	!	!	!	!	!	!	!
2E\	.	.	4.gg\	.	4bb\	.	0r	.
.	.	.	.	.	4gg\	.	.	.
.	.	.	8ee\	.	.	.	.	.
4AA/	.	.	8ff#\L	.	8aa\L	.	.	.
.	.	.	8gg\J	.	8bb\	.	.	.
4C/	.	.	8ff#\L	.	8aa\	.	.	.
.	.	.	8ee\J	.	8gg\J	.	.	.
*	*	*	*custos:ee	*	*	*	*	*
!	!	!	!LO:LB:g=original	!	!	!	!	!
=195	=195	=195	=195	=195	=195	=195	=195	=195
4AA/	.	.	4.ee\	.	4.ff#\	.	.	.
4BB/	.	.	.	.	.	.	.	.
!	!	!	!LO:TX:a:t=P:problem=# above	!	!	!	!	!
.	.	.	8dd#X\	.	8ee\	.	.	.
*	*	*	*2\right	*	*2\right	*	*	*
2E\	.	.	2ee\	.	2ee\	.	.	.
=196	=196	=196	=196	=196	=196-	=196	=196-	=196
*M3/8	*	*	*M3/8	*	*M3/8	*	*M3/8	*
!LO:TX:b:t=allegro	!	!	!LO:TX:b:t=Allegro	!	!LO:TX:b:t=Allegro	!	!	!
!	!	!	!LO:N:vis=0	!	!LO:N:vis=0	!	!	!
8E\	.	.	2.r	.	2.r	.	8r	.
4D#X/	.	.	.	.	.	.	8b\	Da
.	.	.	.	.	.	.	8a\	vir-
*custos:E	*	*	*	*	*	*	*	*
!LO:LB:g=original	!	!	!	!	!	!	!	!
=197	=197	=197	=197	=197	=197	=197	=197	=197
8E\L	.	.	.	.	.	.	(8g/L	-tu-
8D\	.	.	.	.	.	.	8f#/J)	.
8C\J	.	.	.	.	.	.	8e/	-tis
=198	=198	=198	=198-	=198	=198	=198	=198	=198
4BB/	.	.	8r	.	8r	.	8.b\	me-
.	.	.	8f#/L	.	8b/L	.	.	.
.	.	.	.	.	.	.	16b\	-ri-
8D#X/	6	.	8f#/J	.	8a/J	.	8b\	-tum
=199-	=199	=199	=199	=199	=199	=199	=199-	=199
4E\	.	.	8e/L	.	8g/L	.	4.r	.
.	.	.	8f#/	.	8f#/	.	.	.
8r	.	.	8g/J	.	8e/J	.	.	.
=200	=200	=200	=200	=200	=200	=200	=200-	=200
4BB/	.	.	4f#/	.	8.b/L	.	8r	.
.	.	.	.	.	.	.	8b\	da
.	.	.	.	.	16b/K	.	.	.
8r	.	.	8r	.	8b/J	.	8e/	ſa-
=201	=201	=201	=201-	=201	=201-	=201	=201	=201
4E\	.	.	4.r	.	4.r	.	(8g/L	-lu-
.	.	.	.	.	.	.	8f#/J)	.
8r	.	.	.	.	.	.	8e/	-tis
*	*	*	*	*	*	*	*custos:b	*
!	!	!	!	!	!	!	!LO:LB:g=original	!
=202	=202	=202	=202-	=202	=202-	=202	=202	=202
4BB/	.	.	8r	.	8r	.	8.b\	e-
.	.	.	8f#/L	.	8bb\L	.	.	.
.	.	.	.	.	.	.	16b\	-xi-
8r	.	.	8b/J	.	8ff#\J	.	8b\	-tum
=203	=203	=203	=203	=203	=203	=203	=203-	=203
4E\	-	.	8e/L	.	8gg\L	.	4.r	.
.	.	.	8f#/	.	8ff#\	.	.	.
8r	.	.	8g/J	.	8ee\J	.	.	.
=204	=204	=204	=204	=204	=204	=204	=204-	=204
8BB/	.	.	4f#/	.	4bb\	.	8r	.
4GG/	.	.	.	.	.	.	8b\	da
.	.	.	8r	.	8r	.	8b\	pe-
=205	=205	=205	=205	=205	=205	=205	=205	=205
8GG/	.	.	16d/LL	.	16g/LL	.	8b\	-ren-
.	.	.	16d/	.	16g/	.	.	.
4G\	.	.	16g/	.	16b/	.	8g/	-ne
.	.	.	16g/	.	16b/JJ	.	.	.
.	.	.	16b/	.	16dd\LL	.	8dd\	pe-
.	.	.	16b/JJ	.	16gg\JJ	.	.	.
=206	=206	=206	=206	=206	=206	=206	=206	=206
8F#\L	.	.	16ff#\LL	.	16aa\LL	.	4.dd\	-ren-
.	.	.	16ff#\	.	16aa\	.	.	.
8D\	.	.	16aa\	.	16ff#\	.	.	.
.	.	.	16aa\	.	16ff#\	.	.	.
8G\J	.	.	16gg\	.	16bb\	.	.	.
.	.	.	16gg\JJ	.	16bb\JJ	.	.	.
!	!	!	!	!	!LO:LB:g=original	!	!	!
=207	=207	=207	=207	=207	=207	=207	=207-	=207
8F#\L	.	.	16ff#\LL	.	16aa\LL	.	4.dd\	.
.	.	.	16ff#\	.	16aa\	.	.	.
8D\	.	.	16aa\	.	16ff#\	.	.	.
.	.	.	16aa\	.	16ff#\	.	.	.
8G\J	.	.	16bb\	.	16dd\	.	.	.
.	.	.	16bb\JJ	.	16dd\JJ	.	.	.
*	*	*	*custos:ff	*	*	*	*	*
!	!	!	!LO:LB:g=original	!	!	!	!	!
=208	=208	=208	=208	=208	=208	=208	=208-	=208
!	!	!	!LO:TX:a:t=P:problem=mixed beam	!	!	!	!	!
8F#\L	.	.	16ff#\LL	.	16a/LL	.	4.dd\	.
.	.	.	16ff#\	.	16a/	.	.	.
8D\	.	.	16a/	.	16f#/	.	.	.
.	.	.	16a/	.	16f#/	.	.	.
8G\J	.	.	16f#/	.	16d/	.	.	.
.	.	.	16f#/JJ	.	16d/JJ	.	.	.
=209	=209	=209	=209	=209	=209	=209	=209	=209
8G#X\L	.	.	16b/LL	.	16g/LL	.	8b\	-ne'
.	.	.	16b/	.	16g/	.	.	.
8E\	.	.	16g/	.	16b/	.	8ee\	da
.	.	.	16g/	.	16b/JJ	.	.	.
8A\J	.	.	16cc/	.	16ee\LL	.	8ee\	-pe-
.	.	.	16ee/JJ	.	16cc\JJ	.	.	.
=210	=210	=210	=210	=210	=210	=210	=210	=210
!	!	!	!LO:TX:b:t=P:problem=# below	!	!	!	!	!
8G#X\L	.	.	16g#X/LL	.	16b\LL	.	4.ee\	-ren-
.	.	.	16g#/	.	16b\	.	.	.
8E\	.	.	16b/	.	16ee\	.	.	.
.	.	.	16b/	.	16ee\	.	.	.
8A\J	.	.	16a/	.	16cc\	.	.	.
.	.	.	16a/JJ	.	16cc\JJ	.	.	.
=211	=211	=211	=211	=211	=211	=211	=211-	=211
!	!	!	!LO:TX:b:t=P:problem=# below	!	!	!	!	!
8G#X\L	.	.	16g#X/LL	.	16b\LL	.	4.ee\	.
.	.	.	16g#/	.	16b\	.	.	.
8E\	.	.	16b/	.	16ee\	.	.	.
.	.	.	16b/	.	16ee\	.	.	.
8A\J	.	.	16a/	.	16cc\	.	.	.
.	.	.	16a/JJ	.	16cc\JJ	.	.	.
=212	=212	=212	=212	=212	=212	=212	=212-	=212
8G#X\L	.	.	16g/LL	.	16b/LL	.	4.ee\	.
.	.	.	16g/	.	16b/	.	.	.
8E\	.	.	16b/	.	16g/	.	.	.
.	.	.	16b/	.	16g/	.	.	.
8A\J	.	.	16cc/	.	16e/	.	.	.
.	.	.	16cc/JJ	.	16e/JJ	.	.	.
*custos:G	*	*	*	*	*	*	*	*
!LO:LB:g=original	!	!	!	!	!	!	!	!
=213	=213	=213	=213	=213	=213	=213	=213	=213
8G#X\L	.	.	16ee\LL	.	16e/LL	.	8b\	-ne'
.	.	.	16ee\	.	16e/	.	.	.
8A\	.	.	16cc\	.	16g/	.	8ee\	da
.	.	.	16a\JJ	.	16b/	.	.	.
!	!	!	!LO:TX:b:t=P:problem=# below	!	!	!	!	!
8E\J	.	.	8g#X/	.	16ee/	.	8b\	-pe-
.	.	.	.	.	16b/JJ	.	.	.
=214	=214	=214	=214	=214	=214	=214	=214	=214
4F#\	.	.	4a/	.	8a/L	.	(8cc\L	-ren-
.	.	.	.	.	8b/	.	8dd\J)	.
8C/	.	.	8r	.	8cc/J	.	8ee\	-ne
*	*	*	*	*	*custos:f	*	*	*
!	!	!	!	!	!LO:LB:g=original	!	!	!
=215	=215	=215	=215	=215	=215	=215	=215	=215
*	*	*	*	*	*	*	*	*ij
4D/	.	.	4d/	.	8f#/L	.	8a\	pe-
.	.	.	.	.	8g/	.	8b\	-ren-
8AA/	.	.	8r	.	8a/J	.	8cc\	-ne
*	*	*	*	*	*	*	*	*Xij
*	*	*	*	*	*	*	*custos:cc	*
!	!	!	!	!	!	!	!LO:LB:g=original	!
=216	=216	=216	=216	=216	=216	=216	=216	=216
4.E\	.	.	4e/	.	8a/L	.	(8cc\	gau-
.	.	.	.	.	8.a/	.	8.b\)	.
.	.	.	8r	.	.	.	.	.
!	!	!	!	!	!LO:TX:b:t=P:problem=# below	!	!	!
.	.	.	.	.	16g#X/Jk	.	16a\	-di-
=217	=217	=217	=217	=217	=217	=217	=217	=217
4AA/	.	.	4e/	.	4a/	.	8a\	-um'
.	.	.	.	.	.	.	8dd\	da
8F#\	6	.	8r	.	8r	.	8dd\	pe-
*	*	*	*custos:b	*	*	*	*	*
!	!	!	!LO:LB:g=original	!	!	!	!	!
=218	=218	=218	=218	=218	=218	=218	=218	=218
!LO:TX:a:t=P:problem=mixed beam	!	!	!	!	!LO:TX:a:t=P:problem=mixed beam	!	!	!
8G\L	.	.	8b/L	.	8g/L	.	8b\	-ren-
8BB/	.	.	8g/	.	8dd\	.	8g/	-ne
8D/J	.	.	8b/J	.	8dd\J	.	8a\	pe-
=219	=219	=219	=219	=219	=219	=219	=219	=219
4.G\	.	.	4.dd\	.	4.dd\	.	16b\LL	-ren-
.	.	.	.	.	.	.	16a\	.
.	.	.	.	.	.	.	16b\	.
.	.	.	.	.	.	.	16g\	.
.	.	.	.	.	.	.	16a\	.
.	.	.	.	.	.	.	16b\JJ	.
=220	=220	=220	=220	=220	=220-	=220	=220	=220
4.D/	.	.	4.dd\	.	4.dd\	.	16a\LL	.
.	.	.	.	.	.	.	16g\	.
.	.	.	.	.	.	.	16a\	.
.	.	.	.	.	.	.	16f#\	.
.	.	.	.	.	.	.	16g\	.
.	.	.	.	.	.	.	16a\JJ	.
=221	=221	=221	=221-	=221	=221-	=221	=221	=221
4.G\	.	.	4.dd\	.	4.dd\	.	16b\LL	.
.	.	.	.	.	.	.	16a\	.
.	.	.	.	.	.	.	16g\	.
.	.	.	.	.	.	.	16a\	.
.	.	.	.	.	.	.	16b\	.
.	.	.	.	.	.	.	16cc\JJ	.
=222	=222	=222	=222-	=222	=222-	=222	=222	=222
4G\	.	.	4.dd\	.	4.dd\	.	16dd\LL	.
.	.	.	.	.	.	.	16cc\	.
.	.	.	.	.	.	.	16b\	.
.	.	.	.	.	.	.	16cc\	.
8F#X\	6	.	.	.	.	.	16dd\	.
.	.	.	.	.	.	.	16a\JJ	.
=223	=223	=223	=223	=223	=223	=223	=223	=223
4G\	.	.	16dd\LL	.	16b\LL	.	8b\	.
.	.	.	16dd\	.	16b\	.	.	.
.	.	.	16b\	.	16dd\	.	8g/	-ne'
.	.	.	16b\	.	16dd\	.	.	.
8E\	-	.	16ee\	.	16gg\	.	8b\	pe-
.	.	.	16ee\JJ	.	16gg\JJ	.	.	.
*	*	*	*	*	*	*	*custos:b	*
!	!	!	!	!	!	!	!LO:LB:g=original	!
=224	=224	=224	=224	=224	=224	=224	=224	=224
4BB/	#	.	16dd\LL	.	16ff#\LL	.	4.b\	-ren-
.	.	.	16dd\	.	16ff#\	.	.	.
.	.	.	16ff#\	.	16bb\	.	.	.
.	.	.	16ff#\	.	16bb\	.	.	.
!	!	!	!	!	!LO:TX:a:t=P:problem=# above	!	!	!
8r	.	.	16bb\	.	16dd#X\	.	.	.
.	.	.	16ff#\JJ	.	16dd#\JJ	.	.	.
=225	=225	=225	=225	=225	=225	=225	=225-	=225
4E\	.	.	16gg\LL	.	16ee\LL	.	4.b\	.
.	.	.	16gg\	.	16ee\	.	.	.
.	.	.	16ee\	.	16gg\	.	.	.
.	.	.	16ee\	.	16gg\	.	.	.
8r	.	.	16gg\	.	16dd\	.	.	.
.	.	.	16ee\JJ	.	16dd\JJ	.	.	.
*	*	*	*	*	*custos:ff	*	*	*
!	!	!	!	!	!LO:LB:g=original	!	!	!
=226	=226	=226	=226	=226	=226	=226	=226-	=226
!	!	!	!LO:TX:a:t=P:problem=# above	!	!	!	!	!
4BB/	#	.	16dd#X\LL	.	16ff#\LL	.	4.b\	.
.	.	.	16dd#\	.	16ff#\	.	.	.
.	.	.	16ff#\	.	16bb\	.	.	.
.	.	.	16ff#\	.	16bb\	.	.	.
!	!	!	!LO:TX:a:t=P:problem=# above	!	!LO:TX:a:t=P:problem=# above	!	!	!
8r	.	.	16dd#X\	.	16dd#X\	.	.	.
.	.	.	16dd#\JJ	.	16dd#\JJ	.	.	.
=227	=227	=227	=227	=227	=227	=227	=227-	=227
4E\	.	.	16gg\LL	.	16ee\LL	.	4.b\	.
.	.	.	16gg\	.	16ee\	.	.	.
.	.	.	16ee\	.	16gg\	.	.	.
.	.	.	16ee\	.	16gg\	.	.	.
8r	.	.	16gg\	.	16b\	.	.	.
.	.	.	16ee\JJ	.	16b\JJ	.	.	.
*	*	*	*custos:b	*	*	*	*	*
!	!	!	!LO:LB:g=original	!	!	!	!	!
=228	=228	=228	=228	=228	=228	=228	=228	=228
4E\	.	.	16b\LL	.	16ee\LL	.	8b\	-ne'
.	.	.	16b\	.	16ee\	.	.	.
.	.	.	16ee\	.	16gg\	.	8g/	da
.	.	.	16ee\	.	16gg\	.	.	.
8G\	.	.	16gg\	.	16bb\	.	8b\	pe-
.	.	.	16ee\JJ	.	16bb\JJ	.	.	.
=229	=229	=229	=229	=229	=229	=229	=229	=229
8A\L	.	.	8.ee\L	.	8.aa\L	.	(8cc#X\L	-ren-
8B\	.	.	.	.	.	.	8dd\J)	.
.	.	.	16ee\K	.	16gg\K	.	.	.
8c\J	.	.	8ee\J	.	8ff#\J	.	8ee\	-ne
=230	=230	=230	=230	=230	=230	=230	=230	=230
4.B\	.	.	8.b/L	.	8.ff#\L	.	8.ee\	gau-
.	.	.	16b/K	.	16ee\K	.	16ee\	-di-
!	!	!	!	!	!	!	!LO:TX:a:t=P:problem=# above	!
.	.	.	8b/J	.	8ff#\J	.	8dd#X\	-um
=231	=231	=231	=231	=231	=231	=231	=231	=231
!LO:N:vis=4	!	!	!LO:TX:a:t=P:problem=mixed beam	!	!	!	!	!
8E\	.	.	8b/L	.	8ee\L	.	8ee\	a-
8r	.	.	8b/	.	8ee\	.	8ee\	-men
8r	.	.	8gg\J	.	8bb\J	.	8r	.
=232	=232	=232	=232	=232	=232	=232	=232-	=232
!	!	!	!	!	!	!	!LO:N:vis=0	!
4A\	.	.	8.cc#X\L	.	(8ee\L	.	2.r	.
.	.	.	.	.	8ff#\	.	.	.
!	!	!	!LO:TX:a:t=P:problem=# above	!	!	!	!	!
.	.	.	16dd#X\K	.	.	.	.	.
8E\	.	.	8ee\J	.	8gg\J)	.	.	.
=233	=233	=233	=233	=233	=233	=233	=233	=233
!	!	!	!LO:TX:a:t=P:problem=# above	!	!	!	!	!
4B\	.	.	8.dd#X\L	.	8.ff#\L	.	.	.
!	!	!	!LO:SIC:s=cc#:v	!	!	!	!	!
.	.	.	16cc\K	.	16ee\K	.	.	.
!	!	!	!LO:TX:a:t=P:problem=# above	!	!	!	!	!
8BB/	.	.	8dd#X\J	.	8ff#\J	.	.	.
*custos:E	*	*	*	*	*	*	*	*
!LO:LB:g=original	!	!	!	!	!	!	!	!
=234	=234	=234	=234	=234	=234	=234	=234-	=234
8E\	.	.	8ee\	.	8ee\	.	8e/	a-
8E\	.	.	8r	.	8r	.	8e/	-men
!LO:TX:a:t=P:problem=kreska taktowa z podwójną repetycją	!	!	!LO:TX:a:t=P:problem=kreska taktowa z podwójną repetycją i z segno na górze i na dole	!	!LO:TX:a:t=P:problem=kreska taktowa z podwójną repetycją i z segno na górze i na dole	!	!	!
8r	.	.	8r	.	8r	.	8r	.
==	==	==	==	==	==	==	==	==
*-	*-	*-	*-	*-	*-	*-	*-	*-
!!!system-decoration: s1[g1]s4
!!!ENC: Marta Lawrence
!!!END: 2020-10-20
!!!ENC: Marcin Jachim
!!!END: 2020-06-20
!!!YEC: Copyright 2022 Narodowy Instytut Fryderyka Chopina (https://polishscores.org)
!!!YEM: License CC-BY-4.0 (https://creativecommons.org/licenses/by/4.0)
